!!!COM: Vivaldi, Antonio
!!!OTL: Concerto a violino solo, No. 5
!!!XEN: Violin Concerto No. 5
!!!OTP: La Tempesta di Mare
!!!OTA: The Storm at Sea
!!!OPR: Il Cimento dell'armonia e dell'inventione
!!!XEN: The Contest of Harmony and Invention
!!!OPS: Opus 8
!!!ONM: No. 5
!!!OMV: Movement 3.
!!!YEC: Copyright 1996, Center for Computer Assisted Research in the Humanities
!!!YEM: Rights to all derivative electronic formats reserved.
!!!YEM: Refer to licensing agreement for important restrictions.
!!!OMD: Presto
**kern	**kern	**kern	**kern	**kern	**Bnum
*Icello	*Iviola	*Ivioln	*Ivioln	*Ivioln	*Icemba
*Icemba	*	*	*	*	*
*ICstr	*ICstr	*ICstr	*ICstr	*ICstr	*ICklav
*ICklav	*	*	*	*	*
!cello	!viola 	!violino 2	!violino 1	!violino principale	!continuo
!basso continuo	!	!	!	!	!
*clefF4	*clefC3	*clefG2	*clefG2	*clefG2	*
*k[b-e-a-]	*k[b-e-a-]	*k[b-e-a-]	*k[b-e-a-]	*k[b-e-a-]	*k[b-e-a-]
*E-:	*E-:	*E-:	*E-:	*E-:	*E-:
*M3/8	*M3/8	*M3/8	*M3/8	*M3/8	*M3/8
*>Selfridge-Field[etc1,S44,etc2,S59,etc3,S91,etc4,S142,etc5,S147,etc6,S218,etc7,S220,etc8,S222,etc9,etc10,S250,etc11,S292,etc12]	*>Selfridge-Field[etc1,S44,etc2,S59,etc3,S91,etc4,S142,etc5,S147,etc6,S218,etc7,S220,etc8,S222,etc9,etc10,S250,etc11,S292,etc12]	*>Selfridge-Field[etc1,S44,etc2,S59,etc3,S91,etc4,S142,etc5,S147,etc6,S218,etc7,S220,etc8,S222,etc9,etc10,S250,etc11,S292,etc12]	*>Selfridge-Field[etc1,S44,etc2,S59,etc3,S91,etc4,S142,etc5,S147,etc6,S218,etc7,S220,etc8,S222,etc9,etc10,S250,etc11,S292,etc12]	*>Selfridge-Field[etc1,S44,etc2,S59,etc3,S91,etc4,S142,etc5,S147,etc6,S218,etc7,S220,etc8,S222,etc9,etc10,S250,etc11,S292,etc12]	*>Selfridge-Field[etc1,S44,etc2,S59,etc3,S91,etc4,S142,etc5,S147,etc6,S218,etc7,S220,etc8,S222,etc9,etc10,S250,etc11,S292,etc12]
*>Amsterdam[etc1,A44,etc2,A59,etc3,A91,etc4,S142,etc5,A147,etc6,A218,etc7,A220,etc8,A222,etc9,etc10,S250,etc11,A292,etc12]	*>Amsterdam[etc1,A44,etc2,A59,etc3,A91,etc4,S142,etc5,A147,etc6,A218,etc7,A220,etc8,A222,etc9,etc10,S250,etc11,A292,etc12]	*>Amsterdam[etc1,A44,etc2,A59,etc3,A91,etc4,S142,etc5,A147,etc6,A218,etc7,A220,etc8,A222,etc9,etc10,S250,etc11,A292,etc12]	*>Amsterdam[etc1,A44,etc2,A59,etc3,A91,etc4,S142,etc5,A147,etc6,A218,etc7,A220,etc8,A222,etc9,etc10,S250,etc11,A292,etc12]	*>Amsterdam[etc1,A44,etc2,A59,etc3,A91,etc4,S142,etc5,A147,etc6,A218,etc7,A220,etc8,A222,etc9,etc10,S250,etc11,A292,etc12]	*>Amsterdam[etc1,A44,etc2,A59,etc3,A91,etc4,S142,etc5,A147,etc6,A218,etc7,A220,etc8,A222,etc9,etc10,S250,etc11,A292,etc12]
*>Dresden[etc1,A44,etc2,A59,etc3,S91,etc4,S142,etc5,A147,etc6,S218,etc7,S220,etc8,D222,etc10,S250,etc11,S292,etc12]	*>Dresden[etc1,A44,etc2,A59,etc3,S91,etc4,S142,etc5,A147,etc6,S218,etc7,S220,etc8,D222,etc10,S250,etc11,S292,etc12]	*>Dresden[etc1,A44,etc2,A59,etc3,S91,etc4,S142,etc5,A147,etc6,S218,etc7,S220,etc8,D222,etc10,S250,etc11,S292,etc12]	*>Dresden[etc1,A44,etc2,A59,etc3,S91,etc4,S142,etc5,A147,etc6,S218,etc7,S220,etc8,D222,etc10,S250,etc11,S292,etc12]	*>Dresden[etc1,A44,etc2,A59,etc3,S91,etc4,S142,etc5,A147,etc6,S218,etc7,S220,etc8,D222,etc10,S250,etc11,S292,etc12]	*>Dresden[etc1,A44,etc2,A59,etc3,S91,etc4,S142,etc5,A147,etc6,S218,etc7,S220,etc8,D222,etc10,S250,etc11,S292,etc12]
*>Manchester[etc1,S44,etc2,A59,etc3,S91,etc4,M142,etc5,S147,etc6,S218,etc7,M220,etc10,M250,etc11,S292,etc12]	*>Manchester[etc1,S44,etc2,A59,etc3,S91,etc4,M142,etc5,S147,etc6,S218,etc7,M220,etc10,M250,etc11,S292,etc12]	*>Manchester[etc1,S44,etc2,A59,etc3,S91,etc4,M142,etc5,S147,etc6,S218,etc7,M220,etc10,M250,etc11,S292,etc12]	*>Manchester[etc1,S44,etc2,A59,etc3,S91,etc4,M142,etc5,S147,etc6,S218,etc7,M220,etc10,M250,etc11,S292,etc12]	*>Manchester[etc1,S44,etc2,A59,etc3,S91,etc4,M142,etc5,S147,etc6,S218,etc7,M220,etc10,M250,etc11,S292,etc12]	*>Manchester[etc1,S44,etc2,A59,etc3,S91,etc4,M142,etc5,S147,etc6,S218,etc7,M220,etc10,M250,etc11,S292,etc12]
*>etc1	*>etc1	*>etc1	*>etc1	*>etc1	*>etc1
=1-	=1-	=1-	=1-	=1-	=1-
8E-\L	8e-\L	8e-/L	8e-/L	8e-/L	.
8e-\	8ee-\	8ee-/	8ee-/	8ee-/	.
8E-\J	8e-\J	8e-/J	8e-/J	8e-/J	.
=2	=2	=2	=2	=2	=2
8E-\L	8e-\L	8e-/L	8e-/L	8e-/L	.
8e-\	8ee-\	8ee-/	8ee-/	8ee-/	.
8E-\J	8e-\J	8e-/J	8e-/J	8e-/J	.
=3	=3	=3	=3	=3	=3
4E-\	4e-\	4e-/	4e-/	4e-/	.
8r	8r	8r	8r	8r	.
=4	=4	=4	=4	=4	=4
4.r	4.r	16bb-\LL	16bb-\LL	16bb-\LL	.
.	.	16aa-\	16aa-\	16aa-\	.
.	.	16gg\	16gg\	16gg\	.
.	.	16ff\	16ff\	16ff\	.
.	.	16ee-\	16ee-\	16ee-\	.
.	.	16dd\JJ	16dd\JJ	16dd\JJ	.
=5	=5	=5	=5	=5	=5
4.r	4.r	16cc/LL	16cc/LL	16cc/LL	.
.	.	16b-/	16b-/	16b-/	.
.	.	16a-/	16a-/	16a-/	.
.	.	16g/	16g/	16g/	.
.	.	16f/	16f/	16f/	.
.	.	16e-/JJ	16e-/JJ	16e-/JJ	.
=6	=6	=6	=6	=6	=6
8D\L	8d\L	8d/L	8d/L	8d/L	6
8d\	8dd\	8dd/	8dd/	8dd/	.
8D\J	8d\J	8d/J	8d/J	8d/J	.
=7	=7	=7	=7	=7	=7
8D\L	8d\L	8d/L	8d/L	8d/L	.
8d\	8dd\	8dd/	8dd/	8dd/	.
8D\J	8d\J	8d/J	8d/J	8d/J	.
=8	=8	=8	=8	=8	=8
4D\	4d\	4d/	4d/	4d/	.
8r	8r	8r	8r	8r	.
=9	=9	=9	=9	=9	=9
4.r	4.r	16aa-\LL	16aa-\LL	16aa-\LL	.
.	.	16gg\	16gg\	16gg\	.
.	.	16ff\	16ff\	16ff\	.
.	.	16ee-\	16ee-\	16ee-\	.
.	.	16dd\	16dd\	16dd\	.
.	.	16cc\JJ	16cc\JJ	16cc\JJ	.
=10	=10	=10	=10	=10	=10
4.r	4.r	16b-/LL	16b-/LL	16b-/LL	.
.	.	16a-/	16a-/	16a-/	.
.	.	16g/	16g/	16g/	.
.	.	16f/	16f/	16f/	.
.	.	16e-/	16e-/	16e-/	.
.	.	16d/JJ	16d/JJ	16d/JJ	.
=11	=11	=11	=11	=11	=11
8C\L	8c\L	8c/L	8c/L	8c/L	.
8c\	8cc\	8cc/	8cc/	8cc/	.
8C\J	8c\J	8c/J	8c/J	8c/J	.
=12	=12	=12	=12	=12	=12
8C\L	8c\L	8c/L	8c/L	8c/L	.
8c\	8cc\	8cc/	8cc/	8cc/	.
8C\J	8c\J	8c/J	8c/J	8c/J	.
=13	=13	=13	=13	=13	=13
4C/	4c\	4c/	4c/	4c/	.
8r	8r	8r	8r	8r	.
=14	=14	=14	=14	=14	=14
4.r	4.r	16gg\LL	16gg\LL	16gg\LL	.
.	.	16ff\	16ff\	16ff\	.
.	.	16ee-\	16ee-\	16ee-\	.
.	.	16dd\	16dd\	16dd\	.
.	.	16cc\	16cc\	16cc\	.
.	.	16b-\JJ	16b-\JJ	16b-\JJ	.
=15	=15	=15	=15	=15	=15
4.r	4.r	16a-/LL	16a-/LL	16a-/LL	.
.	.	16g/	16g/	16g/	.
.	.	16f/	16f/	16f/	.
.	.	16e-/	16e-/	16e-/	.
.	.	16d/	16d/	16d/	.
.	.	16c/JJ	16c/JJ	16c/JJ	.
=16	=16	=16	=16	=16	=16
8BB-\L	8B-\L	8B-/L	8B-/L	8B-/L	.
8B-\	8b-\	8b-/	8b-/	8b-/	.
8BB-\J	8B-\J	8B-/J	8B-/J	8B-/J	.
=17	=17	=17	=17	=17	=17
8BB-\L	8B-\L	8B-/L	8B-/L	8B-/L	.
8B-\	8b-\	8b-/	8b-/	8b-/	.
8BB-\J	8B-\J	8B-/J	8B-/J	8B-/J	.
=18	=18	=18	=18	=18	=18
4BB-/	4B-/	4B-/	4B-/	4B-/	.
8r	8r	8r	8r	8r	.
=19	=19	=19	=19	=19	=19
4.r	4.r	8B-/L	8B-/L	16gg\LL	.
.	.	.	.	16ee-\	.
.	.	8b-/	8b-/	16b-\	.
.	.	.	.	16ee-\	.
.	.	8B-/J	8B-/J	16gg\	.
.	.	.	.	16bb-\JJ	.
=20	=20	=20	=20	=20	=20
4.r	4.r	8B-/L	8B-/L	16gg\LL	.
.	.	.	.	16ee-\	.
.	.	8b-/	8b-/	16b-\	.
.	.	.	.	16ee-\	.
.	.	8B-/J	8B-/J	16gg\	.
.	.	.	.	16bb-\JJ	.
=21	=21	=21	=21	=21	=21
4.r	4.r	8B-/L	8B-/L	16ff\LL	.
.	.	.	.	16dd\	.
.	.	8b-/	8b-/	16b-\	.
.	.	.	.	16dd\	.
.	.	8B-/J	8B-/J	16ff\	.
.	.	.	.	16bb-\JJ	.
=22	=22	=22	=22	=22	=22
4.r	4.r	8B-/L	8B-/L	16ff\LL	.
.	.	.	.	16dd\	.
.	.	8b-/	8b-/	16b-\	.
.	.	.	.	16dd\	.
.	.	8B-/J	8B-/J	16ff\	.
.	.	.	.	16bb-\JJ	.
=23	=23	=23	=23	=23	=23
4.r	8B-\L	4B-/	4B-/	16b-/LL	.
.	.	.	.	16g/	.
.	8b-\	.	.	16e-/	.
.	.	.	.	16g/	.
.	8B-\J	8r	8r	16b-/	.
.	.	.	.	16ee-/JJ	.
=24	=24	=24	=24	=24	=24
4.r	8B-\L	4.r	4.r	16b-/LL	.
.	.	.	.	16g/	.
.	8b-\	.	.	16e-/	.
.	.	.	.	16g/	.
.	8B-\J	.	.	16b-/	.
.	.	.	.	16ee-/JJ	.
=25	=25	=25	=25	=25	=25
4.r	8B-\L	4.r	4.r	16b-/LL	.
.	.	.	.	16f/	.
.	8b-\	.	.	16d/	.
.	.	.	.	16f/	.
.	8B-\J	.	.	16b-/	.
.	.	.	.	16dd/JJ	.
=26	=26	=26	=26	=26	=26
4.r	8B-\L	4.r	4.r	16b-/LL	.
.	.	.	.	16f/	.
.	8b-\	.	.	16d/	.
.	.	.	.	16f/	.
.	8B-\J	.	.	16b-/	.
.	.	.	.	16dd/JJ	.
=27	=27	=27	=27	=27	=27
8BB-\L	4B-/	4.r	4.r	16e-/LL	6 4
.	.	.	.	16B-/	.
8B-\	.	.	.	16G/	.
.	.	.	.	16B-/	.
8BB-\J	8r	.	.	16e-/	.
.	.	.	.	16g/JJ	.
=28	=28	=28	=28	=28	=28
8BB-\L	4.r	4.r	4.r	16e-/LL	.
.	.	.	.	16B-/	.
8B-\	.	.	.	16G/	.
.	.	.	.	16B-/	.
8BB-\J	.	.	.	16e-/	.
.	.	.	.	16g/JJ	.
=29	=29	=29	=29	=29	=29
8BB-\L	4.r	4.r	4.r	16f/LL	7 5
.	.	.	.	16d/	.
8B-\	.	.	.	16B-/	.
.	.	.	.	16d/	.
8BB-\J	.	.	.	16f/	.
.	.	.	.	16a-/JJ	.
=30	=30	=30	=30	=30	=30
8BB-\L	4.r	4.r	4.r	16f/LL	.
.	.	.	.	16d/	.
8B-\	.	.	.	16B-/	.
.	.	.	.	16d/	.
8BB-\J	.	.	.	16f/	.
.	.	.	.	16a-/JJ	.
=31	=31	=31	=31	=31	=31
8E-\L	8g\L	16ee-\LL	16ee-\LL	4g/	.
.	.	16dd\	16dd\	.	.
8e-\	8g\	16cc\	16cc\	.	.
.	.	16b-\	16b-\	.	.
8E-\J	8g\J	16a-\	16a-\	8r	.
.	.	16g\JJ	16g\JJ	.	.
=32	=32	=32	=32	=32	=32
8BB-\L	4.d\	16f/LL	16f/LL	4.r	.
.	.	16e-/	16e-/	.	.
8B-\	.	16d/	16d/	.	.
.	.	16c/J	16c/J	.	.
8BB-\J	.	8B-/J	8B-/J	.	.
=33	=33	=33	=33	=33	=33
4.r	4.r	4.r	4.r	16eee-\LL	.
.	.	.	.	16bb-\	.
.	.	.	.	16gg\	.
.	.	.	.	16bb-\	.
.	.	.	.	16eee-\	.
.	.	.	.	16ddd\JJ	.
=34	=34	=34	=34	=34	=34
4.r	4.r	4.r	4.r	16eee-\LL	.
.	.	.	.	16bb-\	.
.	.	.	.	16gg\	.
.	.	.	.	16bb-\	.
.	.	.	.	16ddd-\	.
.	.	.	.	16ccc\JJ	.
=35	=35	=35	=35	=35	=35
4.r	4.r	4.r	4.r	16ddd-\LL	.
.	.	.	.	16bb-\	.
.	.	.	.	16gg\	.
.	.	.	.	16bb-\	.
.	.	.	.	16ddd-\	.
.	.	.	.	16bb-\JJ	.
=36	=36	=36	=36	=36	=36
8A-\L	8a-\L	8a-/L	8a-/L	4ccc\	.
8E-\	8e-\	8e-/	8e-/	.	.
8C\J	8c\J	8c/J	8c/J	8r	.
=37	=37	=37	=37	=37	=37
4AAn/	4An/	4An/	4An/	16fff\LL	6
.	.	.	.	16ccc\	.
.	.	.	.	16aan\	.
.	.	.	.	16ccc\	.
8r	8r	8r	8r	16fff\	.
.	.	.	.	16eee-\JJ	.
=38	=38	=38	=38	=38	=38
4.r	4.r	4.r	4.r	16fff\LL	.
.	.	.	.	16ccc\	.
.	.	.	.	16aan\	.
.	.	.	.	16ccc\	.
.	.	.	.	16eee-\	.
.	.	.	.	16ddd\JJ	.
=39	=39	=39	=39	=39	=39
4.r	4.r	4.r	4.r	16eee-\LL	.
.	.	.	.	16ccc\	.
.	.	.	.	16aan\	.
.	.	.	.	16ccc\	.
.	.	.	.	16eee-\	.
.	.	.	.	16ccc\JJ	.
=40	=40	=40	=40	=40	=40
8B-\L	8b-\L	8b-/L	8b-/L	4ddd\	.
8F\	8f\	8f/	8f/	.	.
8D\J	8d\J	8d/J	8d/J	8r	.
=41	=41	=41	=41	=41	=41
4BBn/	4Bn/	4Bn/	4Bn/	16ggg\LL	6
.	.	.	.	16ddd\	.
.	.	.	.	16bbn\	.
.	.	.	.	16ddd\	.
8r	8r	8r	8r	16ggg\	.
.	.	.	.	16fff\JJ	.
=42	=42	=42	=42	=42	=42
4.r	4.r	4.r	4.r	16ggg\LL	.
.	.	.	.	16ddd\	.
.	.	.	.	16bbn\	.
.	.	.	.	16ddd\	.
.	.	.	.	16fff\	.
.	.	.	.	16eee-\JJ	.
=43	=43	=43	=43	=43	=43
4.r	4.r	4.r	4.r	16fff\LL	.
.	.	.	.	16ddd\	.
.	.	.	.	16bbn\	.
.	.	.	.	16ddd\	.
.	.	.	.	16fff\	.
.	.	.	.	16ddd\JJ	.
*>S44	*>S44	*>S44	*>S44	*>S44	*>S44
!! Selfridge-Field edition.
=44	=44	=44	=44	=44	=44
4C/	4c\	4c/	4c/	16eee-\LL	.
.	.	.	.	16ggg\	.
.	.	.	.	16ggg\	.
.	.	.	.	16fff\	.
8r	8r	8r	8r	16fff\	.
.	.	.	.	16eee-\JJ	.
*>A44	*>A44	*>A44	*>A44	*>A44	*>A44
!! Amsterdam print.
=44	=44	=44	=44	=44	=44
4C/	4.r	4.r	4.r	16eee-\LL	.
.	.	.	.	16ggg\	.
.	.	.	.	16ggg\	.
.	.	.	.	16fff\	.
8r	.	.	.	16fff\	.
.	.	.	.	16eee-\JJ	.
*>etc2	*>etc2	*>etc2	*>etc2	*>etc2	*>etc2
=45	=45	=45	=45	=45	=45
4.r	4.r	4.r	4.r	16eee-\LL	.
.	.	.	.	16ddd\	.
.	.	.	.	16ddd\	.
.	.	.	.	16ccc\	.
.	.	.	.	16ccc\	.
.	.	.	.	16bb-\JJ	.
=46	=46	=46	=46	=46	=46
4.r	4.r	4.r	4.r	16bb-\LL	.
.	.	.	.	16aan\	.
.	.	.	.	16aa\	.
.	.	.	.	16gg\	.
.	.	.	.	16gg\	.
.	.	.	.	16ff\JJ	.
=47	=47	=47	=47	=47	=47
4.r	4.r	4.r	4.r	16ff\LL	.
.	.	.	.	16ee-\	.
.	.	.	.	16ee-\	.
.	.	.	.	16dd\	.
.	.	.	.	16dd\	.
.	.	.	.	16cc\JJ	.
=48	=48	=48	=48	=48	=48
4.r	4.r	4.r	4.r	16cc/LL	.
.	.	.	.	16b-/	.
.	.	.	.	16b-/	.
.	.	.	.	16an/	.
.	.	.	.	16a/	.
.	.	.	.	16g/JJ	.
=49	=49	=49	=49	=49	=49
8E-\L	4.r	4.r	4.r	16ee-\LL	.
.	.	.	.	16g\	.
8E-\	.	.	.	16g\	.
.	.	.	.	16ee-\	.
8E-\J	.	.	.	16ee-\	.
.	.	.	.	16g\JJ	.
=50	=50	=50	=50	=50	=50
4F\	4.r	4.r	4.r	16a-\LL	.
.	.	.	.	16cc\	.
.	.	.	.	16cc\	.
.	.	.	.	16a-\	.
8r	.	.	.	16a-\	.
.	.	.	.	16cc\JJ	.
=51	=51	=51	=51	=51	=51
8D\L	4.r	4.r	4.r	16dd/LL	6
.	.	.	.	16f/	.
8D\	.	.	.	16f/	.
.	.	.	.	16dd/	.
8D\J	.	.	.	16dd/	.
.	.	.	.	16f/JJ	.
=52	=52	=52	=52	=52	=52
4E-\	4.r	4.r	4.r	16g/LL	.
.	.	.	.	16b-/	.
.	.	.	.	16b-/	.
.	.	.	.	16g/	.
8r	.	.	.	16g/	.
.	.	.	.	16b-/JJ	.
=53	=53	=53	=53	=53	=53
8C/L	4.r	4.r	4.r	16cc/LL	6
.	.	.	.	16e-/	.
8C/	.	.	.	16e-/	.
.	.	.	.	16cc/	.
8C/J	.	.	.	16cc/	.
.	.	.	.	16e-/JJ	.
=54	=54	=54	=54	=54	=54
4D\	4.r	4.r	4.r	16f/LL	6 5
.	.	.	.	16a-/	.
.	.	.	.	16a-/	.
.	.	.	.	16f/	.
8r	.	.	.	16f/	.
.	.	.	.	16a-/JJ	.
=55	=55	=55	=55	=55	=55
8BB-/L	4.r	4.r	4.r	16b-/LL	7
.	.	.	.	16d/	.
8BB-/	.	.	.	16d/	.
.	.	.	.	16b-/	.
8BB-/J	.	.	.	16b-/	.
.	.	.	.	16d/JJ	.
=56	=56	=56	=56	=56	=56
4C/	4.r	4.r	4.r	16e-/LL	.
.	.	.	.	16g/	.
.	.	.	.	16g/	.
.	.	.	.	16e-/	.
8r	.	.	.	16e-/	.
.	.	.	.	16g/JJ	.
=57	=57	=57	=57	=57	=57
8AA-/L	4.r	4.r	4.r	16a-/LL	6
.	.	.	.	16c/	.
8AA-/	.	.	.	16c/	.
.	.	.	.	16a-/	.
8AA-/J	.	.	.	16a-/	.
.	.	.	.	16c/JJ	.
=58	=58	=58	=58	=58	=58
4BB-/	4.r	4.r	4.r	16d/LL	.
.	.	.	.	16f/	.
.	.	.	.	16f/	.
.	.	.	.	16d/	.
8r	.	.	.	16d/	.
.	.	.	.	16f/JJ	.
*>S59	*>S59	*>S59	*>S59	*>S59	*>S59
!! Selfridge-Field edition.
=59	=59	=59	=59	=59	=59
8GG/L	4.r	4.r	4.r	16g/LL	n
.	.	.	.	16Bn/	.
8GG/	.	.	.	16B/	.
.	.	.	.	16g/	.
8GG/J	.	.	.	16g/	.
.	.	.	.	16B/JJ	.
*>A59	*>A59	*>A59	*>A59	*>A59	*>A59
!! Amsterdam print.
=59	=59	=59	=59	=59	=59
8GG/L	4.r	4.r	4.r	16g/LL	n
.	.	.	.	16B-/	.
8GG/	.	.	.	16B-/	.
.	.	.	.	16g/	.
8GG/J	.	.	.	16g/	.
.	.	.	.	16B-/JJ	.
*>etc3	*>etc3	*>etc3	*>etc3	*>etc3	*>etc3
=60	=60	=60	=60	=60	=60
4AA-/	4.r	4.r	4.r	16c/LL	.
.	.	.	.	16e-/	.
.	.	.	.	16e-/	.
.	.	.	.	16c/	.
8r	.	.	.	16c/	.
.	.	.	.	16e-/JJ	.
=61	=61	=61	=61	=61	=61
8F\L	4.r	4.r	4.r	16f/LL	n 7
.	.	.	.	16An/	.
8F\	.	.	.	16A/	.
.	.	.	.	16f/	.
8F\J	.	.	.	16f/	.
.	.	.	.	16A/JJ	.
=62	=62	=62	=62	=62	=62
8B-\L	4.r	4.r	4.r	4d/ 4B-/	.
8D\	.	.	.	.	.
8BB-\J	.	.	.	8r	.
=63	=63	=63	=63	=63	=63
4E-\	4.r	4.r	4.r	8eee-\L	.
.	.	.	.	8b-\	.
8r	.	.	.	8ddd\J	.
=64	=64	=64	=64	=64	=64
4.r	4.r	4.r	4.r	8a-\L	.
.	.	.	.	8ccc\	.
.	.	.	.	8g\J	.
=65	=65	=65	=65	=65	=65
4.r	4.r	4.r	4.r	8bb-\L	.
.	.	.	.	8f\	.
.	.	.	.	8aa-\J	.
=66	=66	=66	=66	=66	=66
4.r	4.r	4.r	4.r	8e-/L	.
.	.	.	.	8gg/	.
.	.	.	.	8d/J	.
=67	=67	=67	=67	=67	=67
4.r	4.r	4.r	4.r	8ff\L	.
.	.	.	.	8c\	.
.	.	.	.	8ee-\J	.
=68	=68	=68	=68	=68	=68
4.r	4.r	4.r	4.r	8B-/L	.
.	.	.	.	8dd/	.
.	.	.	.	8A-/J	.
=69	=69	=69	=69	=69	=69
4.r	4.r	4.r	4.r	8cc/L	.
.	.	.	.	8G/	.
.	.	.	.	8b-/J	.
=70	=70	=70	=70	=70	=70
4.r	4.r	4.r	4.r	8A-/L	.
.	.	.	.	8cc/	.
.	.	.	.	8A-/J	.
=71	=71	=71	=71	=71	=71
4.r	4.r	4.r	4.r	8cc/L	.
.	.	.	.	8An/	.
.	.	.	.	8cc/J	.
=72	=72	=72	=72	=72	=72
4.r	4.r	4.r	4.r	8B-/L	.
.	.	.	.	8dd/	.
.	.	.	.	8B-/J	.
=73	=73	=73	=73	=73	=73
4.r	4.r	4.r	4.r	8dd/L	.
.	.	.	.	8Bn/	.
.	.	.	.	8dd/J	.
=74	=74	=74	=74	=74	=74
4.r	4.r	4.r	4.r	8c/L	.
.	.	.	.	8ee-/	.
.	.	.	.	8c/J	.
=75	=75	=75	=75	=75	=75
4.r	4.r	4.r	4.r	8ff\L	.
.	.	.	.	8d\	.
.	.	.	.	8ff\J	.
=76	=76	=76	=76	=76	=76
4.r	4.r	4.r	4.r	4e-/	.
.	.	.	.	8r	.
=77	=77	=77	=77	=77	=77
8BB-/L	8d\L	8f/L	8b-\L	8b-\L 8ff/	.
8BB-/	8d\	8f/	8b-\	8b-\ 8ff/	.
8BB-/J	8d\J	8f/J	8b-\J	8b-\J 8ff/	.
=78	=78	=78	=78	=78	=78
4BB-/	4d\	4f/	(16b-\LL	(16b-\LL	.
.	.	.	16cc\	16cc\	.
.	.	.	16dd\	16dd\	.
.	.	.	16ee-\J	16ee-\J	.
8r	8r	8r	8ff\J)	8ff\J)	.
=79	=79	=79	=79	=79	=79
8BB-/L	8d\L	8f/L	8b-\L	8b-\L 8ff/	.
8BB-/	8d\	8f/	8b-\	8b-\ 8ff/	.
8BB-/J	8d\J	8f/J	8b-\J	8b-\J 8ff/	.
=80	=80	=80	=80	=80	=80
4BB-/	4d\	4f/	(16b-\LL	(16b-\LL	.
.	.	.	16cc\	16cc\	.
.	.	.	16dd\	16dd\	.
.	.	.	16ee-\	16ee-\	.
8r	8r	8r	16ff\	16ff\	.
.	.	.	16gg\JJ)	16gg\JJ)	.
=81	=81	=81	=81	=81	=81
8BB-/L	8d\L	8f/L	8b-\L	8b-\L 8ff/	.
8BB-/	8d\	8f/	8b-\	8b-\ 8ff/	.
8BB-/J	8d\J	8f/J	8b-\J	8b-\J 8ff/	.
=82	=82	=82	=82	=82	=82
4BB-/	4d\	4f/	(16b-\LL	(16b-\LL	.
.	.	.	16cc\	16cc\	.
.	.	.	16dd\	16dd\	.
.	.	.	16ee-\	16ee-\	.
8r	8r	8r	16ff\	16ff\	.
.	.	.	32gg\L	32gg\L	.
.	.	.	32aa-\JJJ)	32aa-\JJJ)	.
=83	=83	=83	=83	=83	=83
8BB-/L	8d\L	8f/L	8b-\L	8b-\L 8ff/	.
8BB-/	8d\	8f/	8b-\	8b-\ 8ff/	.
8BB-/J	8d\J	8f/J	8b-\J	8b-\J 8ff/	.
=84	=84	=84	=84	=84	=84
4BB-/	4d\	4f/	(16b-\LL	(16b-\LL	.
.	.	.	16cc\	16cc\	.
.	.	.	16dd\	16dd\	.
.	.	.	16ee-\	16ee-\	.
8r	8r	8r	32ff\L	32ff\L	.
.	.	.	32gg\	32gg\	.
.	.	.	32aa-\	32aa-\	.
.	.	.	32bb-\JJJ)	32bb-\JJJ)	.
=85	=85	=85	=85	=85	=85
16BB-\LL	4d\	4f/	4b-\	4b-\	.
16B-\	.	.	.	.	.
16F\	.	.	.	.	.
16B-\	.	.	.	.	.
16D\	8r	8r	8r	8r	.
16F\JJ	.	.	.	.	.
=86	=86	=86	=86	=86	=86
8BB-/L	8d\L	16bb-\LL	16bb-\LL	16bb-\LL	.
.	.	16aa-\	16aa-\	16aa-\	.
8BB-/	8d\	16gg\	16gg\	16gg\	.
.	.	16ff\	16ff\	16ff\	.
8BB-/J	8d\J	16ee-\	16ee-\	16ee-\	.
.	.	16dd\JJ	16dd\JJ	16dd\JJ	.
=87	=87	=87	=87	=87	=87
8AA-/L	8f\L	16cc/LL	16cc/LL	16cc/LL	6
.	.	16b-/	16b-/	16b-/	.
8AA-/	8f\	16a-/	16a-/	16a-/	.
.	.	16g/	16g/	16g/	.
8AAn/J	8c\J	16f/	16f/	16f/	6
.	.	16e-/JJ	16e-/JJ	16e-/JJ	.
=88	=88	=88	=88	=88	=88
4BB-/	4F/	16d/LL	16d/LL	16d/LL	.
.	.	16c/	16c/	16c/	.
.	.	16B-/	16B-/	16B-/	.
.	.	16A-/J	16A-/J	16A-/J	.
8EE-/	8G/	8G/J	8G/J	8G/J	.
=89	=89	=89	=89	=89	=89
8E-\L	8G/	8b-/L	8ee-/L	8ee-/L	.
8B-\	4d\	(16d/L	(16f/L	(16f/L	7
.	.	16e-/J	16g/J	16g/J	.
8BB-\J	.	8f/J)	8a-/J)	8a-/J)	.
=90	=90	=90	=90	=90	=90
4.BB-/	4.d\	(8f/L	(8a-/L	(8a-/L	7
.	.	8e-/	8g/	8g/	.
.	.	8d/J)	8f/J)	8f/J)	.
*>S91	*>S91	*>S91	*>S91	*>S91	*>S91
!! Selfridge-Field edition.
=91	=91	=91	=91	=91	=91
8E-\L	8G/	8b-/L	8ee-/L	8ee-/L	.
8B-\	4d\	(16d/L	(16f/L	(16f/L	7
.	.	16e-/J	16g/J	16g/J	.
8BB-\J	.	8f/J)	8a-/J)	8a-/J)	.
=92	=92	=92	=92	=92	=92
4.BB-/	4.d\	(8f/L	(8a-/L	(8a-/L	7
.	.	8e-/	8g/	8g/	.
.	.	8d/J)	8f/J)	8f/J)	.
*>A91	*>A91	*>A91	*>A91	*>A91	*>A91
!! Amsterdam print.
=91	=91	=91	=91	=91	=91
8E-\L	8G/	8b-/L	8ee-/L	8ee-/L	.
8B-\	4d\	(16d/L	(16f/L	(16f/L	7
.	.	16e-/J	16g/J	16g/J	.
8BB-\J	.	8f/J)	8a/J)	8a/J)	.
*>etc4	*>etc4	*>etc4	*>etc4	*>etc4	*>etc4
=92	=92	=92	=92	=92	=92
4.BB-/	4.d\	(8f/L	(8a-/L	(8a-/L	7
.	.	8e-/	8g/	8g/	.
.	.	8d/J)	8f/J)	8f/J)	.
=93	=93	=93	=93	=93	=93
8E-\L	8g\L	8ee-/L	8ee-/L	8ee-/L	.
8B-\	8d\	8B-/	8B-/	8B-/	5 4
8BB-\J	8f\J	8dd/J	8dd/J	8dd/J	3
=94	=94	=94	=94	=94	=94
4EE-/	4g\	4ee-\	4ee-\	16b-\LL 16ee-\	.
.	.	.	.	16gg\	.
.	.	.	.	16ee-\	.
.	.	.	.	16gg\	.
8r	8r	8r	8r	16b-\	.
.	.	.	.	16gg\JJ	.
=95	=95	=95	=95	=95	=95
4EE-/	4.r	4.r	4.r	16G\LL 16b-/ 16ee-/	.
.	.	.	.	16gg\	.
.	.	.	.	16ee-\	.
.	.	.	.	16gg\	.
8r	.	.	.	16b-\	.
.	.	.	.	16gg\JJ	.
=96	=96	=96	=96	=96	=96
4EE-/	4.r	4.r	4.r	16G\LL 16b-/ 16ee-/	.
.	.	.	.	16gg\	.
.	.	.	.	16ee-\	.
.	.	.	.	16gg\	.
8r	.	.	.	16b-\	.
.	.	.	.	16gg\JJ	.
=97	=97	=97	=97	=97	=97
4BB-/	4B-/	4B-/	4B-/	16d\LL 16f/ 16b-/ 16dd/	7
.	.	.	.	16ff\	.
.	.	.	.	16dd\	.
.	.	.	.	16ff\	.
8r	8r	8r	8r	16a-\	.
.	.	.	.	16ff\JJ	.
=98	=98	=98	=98	=98	=98
4BB-/	4.r	4.r	4.r	16d\LL 16f/ 16b-/ 16dd/	.
.	.	.	.	16ff\	.
.	.	.	.	16dd\	.
.	.	.	.	16ff\	.
8r	.	.	.	16a-\	.
.	.	.	.	16ff\JJ	.
=99	=99	=99	=99	=99	=99
4BB-/	4.r	4.r	4.r	16d\LL 16f/ 16b-/ 16dd/	.
.	.	.	.	16ff\	.
.	.	.	.	16dd\	.
.	.	.	.	16ff\	.
8r	.	.	.	16a-\	.
.	.	.	.	16ff\JJ	.
=100	=100	=100	=100	=100	=100
4EE-/	4e-\	4e-/	4e-/	16G\LL 16b-/ 16ee-/	.
.	.	.	.	16gg\	.
.	.	.	.	16ee-\	.
.	.	.	.	16gg\	.
8r	8r	8r	8r	16b-\	.
.	.	.	.	16gg\JJ	.
=101	=101	=101	=101	=101	=101
4EE-/	4.r	4.r	4.r	16G\LL 16b-/ 16ee-/	.
.	.	.	.	16gg\	.
.	.	.	.	16ee-\	.
.	.	.	.	16gg\	.
8r	.	.	.	16b-\	.
.	.	.	.	16gg\JJ	.
=102	=102	=102	=102	=102	=102
4EE-/	4.r	4.r	4.r	16G\LL 16b-/ 16ee-/	.
.	.	.	.	16gg\	.
.	.	.	.	16ee-\	.
.	.	.	.	16gg\	.
8r	.	.	.	16b-\	.
.	.	.	.	16gg\JJ	.
=103	=103	=103	=103	=103	=103
4FF/	4f\	4f/	4f/	16an\LL 16cc/ 16ff/ 16aan/	n 7
.	.	.	.	16ccc\	.
.	.	.	.	16aa\	.
.	.	.	.	16ccc\	.
8r	8r	8r	8r	16ee-\	.
.	.	.	.	16ccc\JJ	.
=104	=104	=104	=104	=104	=104
4FF/	4.r	4.r	4.r	16an\LL 16cc/ 16ff/ 16aan/	.
.	.	.	.	16ccc\	.
.	.	.	.	16aa\	.
.	.	.	.	16ccc\	.
8r	.	.	.	16ee-\	.
.	.	.	.	16ccc\JJ	.
=105	=105	=105	=105	=105	=105
4FF/	4.r	4.r	4.r	16an\LL 16cc/ 16ff/ 16aan/	.
.	.	.	.	16ccc\	.
.	.	.	.	16aa\	.
.	.	.	.	16ccc\	.
8r	.	.	.	16ee-\	.
.	.	.	.	16ccc\JJ	.
=106	=106	=106	=106	=106	=106
4BB-/	4.r	4.r	4.r	(16dd\LL	.
.	.	.	.	16ff\	.
.	.	.	.	16ee-\	.
.	.	.	.	16dd\	.
8D\	.	.	.	16ee-\	.
.	.	.	.	16ff\JJ)	.
=107	=107	=107	=107	=107	=107
4E-\	4.r	4.r	4.r	(16gg\LL	.
.	.	.	.	16aan\	.
.	.	.	.	16bb-\	.
.	.	.	.	16ccc\J	.
8BB-/	.	.	.	8ddd\J)	.
=108	=108	=108	=108	=108	=108
8D\L	4.r	4.r	4.r	8bb-\L	6
8E-\	.	.	.	8ccc\	6
8F\J	.	.	.	8aan\J	n
=109	=109	=109	=109	=109	=109
4BB-/	4.r	4.r	4.r	16bb-\LL	.
.	.	.	.	16gg\	.
.	.	.	.	16ff\	.
.	.	.	.	16ee-\	.
8r	.	.	.	16dd\	.
.	.	.	.	16cc\JJ	.
=110	=110	=110	=110	=110	=110
4.r	4.r	4.r	4.r	16b-/LL	.
.	.	.	.	16g/	.
.	.	.	.	16f/	.
.	.	.	.	16e-/	.
.	.	.	.	16d/	.
.	.	.	.	16c/JJ	.
=111	=111	=111	=111	=111	=111
8BB-\L	8B-\L	8B-/L	8B-/L	8B-/L	.
8B-\	8b-\	8b-/	8b-/	8b-/	.
8BB-\J	8B-\J	8B-/J	8B-/J	8B-/J	.
=112	=112	=112	=112	=112	=112
8BB-\L	8B-\L	8B-/L	8B-/L	8B-/L	.
8B-\	8b-\	8b-/	8b-/	8b-/	.
8BB-\J	8B-\J	8B-/J	8B-/J	8B-/J	.
=113	=113	=113	=113	=113	=113
4BB-/	4B-/	4B-/	4B-/	4B-/	.
8r	8r	8r	8r	8r	.
=114	=114	=114	=114	=114	=114
4.r	4.r	16ff\LL	16ff\LL	16ff\LL	.
.	.	16ee-\	16ee-\	16ee-\	.
.	.	16dd\	16dd\	16dd\	.
.	.	16cc\	16cc\	16cc\	.
.	.	16b-\	16b-\	16b-\	.
.	.	16an\JJ	16an\JJ	16an\JJ	.
=115	=115	=115	=115	=115	=115
4.r	4.r	16g/LL	16g/LL	16g/LL	.
.	.	16f/	16f/	16f/	.
.	.	16e-/	16e-/	16e-/	.
.	.	16d/	16d/	16d/	.
.	.	16c/	16c/	16c/	.
.	.	16B-/JJ	16B-/JJ	16B-/JJ	.
=116	=116	=116	=116	=116	=116
8AAn/L	8An\L	8An/L	8An/L	8An/L	6
8An/	8an\	8an/	8an/	8an/	.
8AA/J	8A\J	8A/J	8A/J	8A/J	.
=117	=117	=117	=117	=117	=117
8AAn/L	8An\L	8An/L	8An/L	8An/L	6
8An/	8an\	8an/	8an/	8an/	.
8AA/J	8A\J	8A/J	8A/J	8A/J	.
=118	=118	=118	=118	=118	=118
4AAn/	4An/	4An/	4An/	4An/	6
8r	8r	8r	8r	8r	.
=119	=119	=119	=119	=119	=119
4.r	4.r	16gg\LL	16gg\LL	16gg\LL	.
.	.	16ff\	16ff\	16ff\	.
.	.	16ee-\	16ee-\	16ee-\	.
.	.	16dd\	16dd\	16dd\	.
.	.	16cc\	16cc\	16cc\	.
.	.	16b-\JJ	16b-\JJ	16b-\JJ	.
=120	=120	=120	=120	=120	=120
4.r	4.r	16an/LL	16an/LL	16an/LL	.
.	.	16g/	16g/	16g/	.
.	.	16f/	16f/	16f/	.
.	.	16e-/	16e-/	16e-/	.
.	.	16d/	16d/	16d/	.
.	.	16c/JJ	16c/JJ	16c/JJ	.
=121	=121	=121	=121	=121	=121
8BB-\L	8B-\L	8B-/L	8B-/L	8B-/L	.
8B-\	8b-\	8b-/	8b-/	8b-/	.
8BB-\J	8B-\J	8B-/J	8B-/J	8B-/J	.
=122	=122	=122	=122	=122	=122
8BB-\L	8B-\L	8B-/L	8B-/L	8B-/L	.
8B-\	8b-\	8b-/	8b-/	8b-/	.
8BB-\J	8B-\J	8B-/J	8B-/J	8B-/J	.
=123	=123	=123	=123	=123	=123
4BB-/	4B-/	4B-/	4B-/	4B-/	.
8r	8r	8r	8r	8r	.
=124	=124	=124	=124	=124	=124
8FF/L	8An/L	8c/L	8f/L	8f/L	.
8FF/	8A/	8c/	8f/	8f/	.
8FF/J	8A/J	8c/J	8f/J	8f/J	.
=125	=125	=125	=125	=125	=125
4FF/	4An/	4c/	(16f/LL	(16f/LL	.
.	.	.	16g/	16g/	.
.	.	.	16an/	16an/	.
.	.	.	16b-/J	16b-/J	.
8r	8r	8r	8cc/J)	8cc/J)	.
=126	=126	=126	=126	=126	=126
8FF/L	8An/L	8c/L	8f/L	8f/L	.
8FF/	8A/	8c/	8f/	8f/	.
8FF/J	8A/J	8c/J	8f/J	8f/J	.
=127	=127	=127	=127	=127	=127
4FF/	4An/	4c/	(16f/LL	(16f/LL	.
.	.	.	16g/	16g/	.
.	.	.	16an/	16an/	.
.	.	.	16b-/	16b-/	.
8r	8r	8r	16cc/	16cc/	.
.	.	.	16dd/JJ)	16dd/JJ)	.
=128	=128	=128	=128	=128	=128
8FF/L	8An/L	8c/L	8f/L	8f/L	.
8FF/	8A/	8c/	8f/	8f/	.
8FF/J	8A/J	8c/J	8f/J	8f/J	.
=129	=129	=129	=129	=129	=129
4FF/	4An/	4c/	(16f\LL	(16f\LL	.
.	.	.	16g\	16g\	.
.	.	.	16an\	16an\	.
.	.	.	16b-\	16b-\	.
8r	8r	8r	16cc\	16cc\	.
.	.	.	32dd\L	32dd\L	.
.	.	.	32ee-\JJJ)	32ee-\JJJ)	.
=130	=130	=130	=130	=130	=130
8FF/L	8An/L	8c/L	8f/L	8f/L	.
8FF/	8A/	8c/	8f/	8f/	.
8FF/J	8A/J	8c/J	8f/J	8f/J	.
=131	=131	=131	=131	=131	=131
4FF/	4An/	4c/	(16f\LL	(16f\LL	.
.	.	.	16g\	16g\	.
.	.	.	16an\	16an\	.
.	.	.	16b-\	16b-\	.
8r	8r	8r	32cc\L	32cc\L	.
.	.	.	32dd\	32dd\	.
.	.	.	32ee-\	32ee-\	.
.	.	.	32ff\JJJ)	32ff\JJJ)	.
=132	=132	=132	=132	=132	=132
8BB-/L	8d\L	8b-/L	8b-/L	8b-/L	.
8F/	8c\	8c/	8c/	8c/	5 4
8FF/J	8c\J	8an/J	8an/J	8an/J	n
=133	=133	=133	=133	=133	=133
4BB-/	4d\	4b-\	4b-\	(16b-\LL	.
.	.	.	.	16bb-\	.
.	.	.	.	16ccc\)	.
.	.	.	.	16ddd\	.
8r	8r	8r	8r	16ccc\	.
.	.	.	.	16bb-\JJ	.
=134	=134	=134	=134	=134	=134
4B-\	4.r	4.r	4.r	(16ff\LL	.
.	.	.	.	16bb-\	.
.	.	.	.	16ccc\)	.
.	.	.	.	16ddd\	.
8r	.	.	.	16ccc\	.
.	.	.	.	16bb-\JJ	.
=135	=135	=135	=135	=135	=135
4An\	4.r	4.r	4.r	(16ff\LL	6
.	.	.	.	16aan\	.
.	.	.	.	16bb-\)	.
.	.	.	.	16ccc\	.
8r	.	.	.	16bb-\	.
.	.	.	.	16aan\JJ	.
=136	=136	=136	=136	=136	=136
4F\	4.r	4.r	4.r	(16ee-\LL	n 7
.	.	.	.	16aa\	.
.	.	.	.	16bb-\)	.
.	.	.	.	16ccc\	.
8r	.	.	.	16bb-\	.
.	.	.	.	16aa\JJ	.
=137	=137	=137	=137	=137	=137
16B-\LL	16b-\LL	16b-/LL	16b-/LL	4bb-\	.
16c\	16cc\	16cc/	16cc/	.	.
16B-\	16b-\	16b-/	16b-/	.	.
16A-\	16a-\	16a-/	16a-/	.	.
16G\	16g\	16g/	16g/	8r	.
16F\JJ	16f\JJ	16f/JJ	16f/JJ	.	.
=138	=138	=138	=138	=138	=138
4E-\	4e-\	4e-/	4e-/	16r	6
.	.	.	.	(16ccc\LL	.
.	.	.	.	16ddd\)	.
.	.	.	.	16eee-\	.
8r	8r	8r	8r	16ddd\	.
.	.	.	.	16ccc\JJ	.
=139	=139	=139	=139	=139	=139
4c\	4.r	4.r	4.r	(16gg\LL	.
.	.	.	.	16ccc\	.
.	.	.	.	16ddd\)	.
.	.	.	.	16eee-\	.
8r	.	.	.	16ddd\	.
.	.	.	.	16ccc\JJ	.
=140	=140	=140	=140	=140	=140
4Bn\	4.r	4.r	4.r	(16gg\LL	6
.	.	.	.	16bbn\	.
.	.	.	.	16ccc\)	.
.	.	.	.	16ddd\	.
8r	.	.	.	16ccc\	.
.	.	.	.	16bb\JJ	.
=141	=141	=141	=141	=141	=141
4G\	4.r	4.r	4.r	(16ff\LL	n 7
.	.	.	.	16bbn\	.
.	.	.	.	16ccc\)	.
.	.	.	.	16ddd\	.
8r	.	.	.	16ccc\	.
.	.	.	.	16bb\JJ	.
*>S142	*>S142	*>S142	*>S142	*>S142	*>S142
!! Selfridge-Field edition.
=142	=142	=142	=142	=142	=142
16c\LL	16cc\LL	16cc\LL	16cc\LL	4ccc\	.
16d\	16dd\	16dd\	16dd\	.	.
16c\	16cc\	16cc\	16cc\	.	.
16B-\	16b-\	16b-\	16b-\	.	.
16A-\	16a-\	16a-\	16a-\	8r	.
16G\JJ	16g\JJ	16g\JJ	16g\JJ	.	.
*>M142	*>M142	*>M142	*>M142	*>M142	*>M142
!! Manchester partbooks.
=142	=142	=142	=142	=142	=142
16c\LL	16cc\LL	16cc\LL	16cc\LL	4ccc\	.
16d\	16dd\	16dd\	16dd\	.	.
16c\	16cc\	16cc\	16cc\	.	.
16B-\	16b-\	16b-\	16b-\	.	.
16An\	16an\	16an\	16an\	8r	.
16G\JJ	16g\JJ	16g\JJ	16g\JJ	.	.
*>etc5	*>etc5	*>etc5	*>etc5	*>etc5	*>etc5
=143	=143	=143	=143	=143	=143
4F\	4f\	4f/	4f/	16r	n 6
.	.	.	.	(16ddd\LL	.
.	.	.	.	16eeen\)	.
.	.	.	.	16fff\	.
8r	8r	8r	8r	16eee\	.
.	.	.	.	16ddd\JJ	.
=144	=144	=144	=144	=144	=144
*	*	*	*	*strophe	*
*	*	*	*	*^	*
*	*	*	*	*^	*	*
*	*	*	*	*^	*	*	*
*	*	*	*	*S/S	*S/D	*S/M	*S/A	*
4d\	4.r	4.r	4.r	(16aan\LL	(16aan\LL	(16aan\LL	(16bb-\LL	.
*	*	*	*	*S/fin	*S/fin	*S/fin	*S/fin	*
*	*	*	*	*v	*v	*v	*v	*
*	*	*	*	*S-	*
.	.	.	.	16ddd\	.
.	.	.	.	16eeen\)	.
.	.	.	.	16fff\	.
8r	.	.	.	16eee\	.
.	.	.	.	16ddd\JJ	.
=145	=145	=145	=145	=145	=145
4c#\	4.r	4.r	4.r	(16aan\LL	n 6
.	.	.	.	16ccc#\	.
.	.	.	.	16ddd\)	.
.	.	.	.	16eeen\	.
8r	.	.	.	16ddd\	.
.	.	.	.	16ccc#\JJ	.
=146	=146	=146	=146	=146	=146
4An\	4.r	4.r	4.r	(16gg\LL	# 7
.	.	.	.	16ccc#\	.
.	.	.	.	16ddd\)	.
.	.	.	.	16eeen\	.
8r	.	.	.	16ddd\	.
.	.	.	.	16ccc#\JJ	.
*>S147	*>S147	*>S147	*>S147	*>S147	*>S147
!! Selfridge-Field edition.
=147	=147	=147	=147	=147	=147
8d\L	8dd\L	8dd\L	8dd\L	4ddd\	n5
16c\L	16cc\L	16cc\L	16cc\L	.	.
16B-\	16b-\	16b-\	16b-\	.	.
16An\	16an\	16an\	16an\	8r	.
16G\JJ	16g\JJ	16g\JJ	16g\JJ	.	.
=148	=148	=148	=148	=148	=148
8F\L	4f\	4f/	4f/	16r	n
.	.	.	.	(16fff\LL	.
8F\	.	.	.	16ggg\)	.
.	.	.	.	16aaan\	.
8F\J	8r	8r	8r	16ggg\	.
.	.	.	.	16fff\JJ	.
*>A147	*>A147	*>A147	*>A147	*>A147	*>A147
!! Amsterdam print.
=147	=147	=147	=147	=147	=147
8d\L	4.r	4.r	4.r	4ddd\	n5
16c\L	.	.	.	.	.
16B-\	.	.	.	.	.
16A-\	.	.	.	8r	.
16G\JJ	.	.	.	.	.
=148	=148	=148	=148	=148	=148
8F\L	4.r	4.r	4.r	16r	n
.	.	.	.	(16fff\LL	.
8F\	.	.	.	16ggg\)	.
.	.	.	.	16aaan\	.
8F\J	.	.	.	16ggg\	.
.	.	.	.	16fff\JJ	.
*>etc6	*>etc6	*>etc6	*>etc6	*>etc6	*>etc6
=149	=149	=149	=149	=149	=149
4F\	4.r	4.r	4.r	(16ccc\LL	n
.	.	.	.	16fff\	.
.	.	.	.	16ggg\)	.
.	.	.	.	16aaan\	.
8r	.	.	.	16ggg\	.
.	.	.	.	16fff\JJ	.
=150	=150	=150	=150	=150	=150
8G\L	4.r	4.r	4.r	(16bb-\LL	b6
.	.	.	.	16eee-\	.
8G\	.	.	.	16fff\)	.
.	.	.	.	16ggg\	.
8G\J	.	.	.	16fff\	.
.	.	.	.	16eee-\JJ	.
=151	=151	=151	=151	=151	=151
4G\	4.r	4.r	4.r	(16bb-\LL	b6
.	.	.	.	16eee-\	.
.	.	.	.	16fff\)	.
.	.	.	.	16ggg\	.
8r	.	.	.	16fff\	.
.	.	.	.	16eee-\JJ	.
=152	=152	=152	=152	=152	=152
8F\L	4.r	4.r	4.r	(16aan\LL	n 6
.	.	.	.	16ddd\	.
8F\	.	.	.	16eee-\)	.
.	.	.	.	16fff\	.
8F\J	.	.	.	16eee-\	.
.	.	.	.	16ddd\JJ	.
=153	=153	=153	=153	=153	=153
4F\	4.r	4.r	4.r	(16aan\LL	n 6
.	.	.	.	16ddd\	.
.	.	.	.	16eee-\)	.
.	.	.	.	16fff\	.
8r	.	.	.	16eee-\	.
.	.	.	.	16ddd\JJ	.
=154	=154	=154	=154	=154	=154
8E-\L	4.r	4.r	4.r	(16gg\LL	6
.	.	.	.	16ccc\	.
8E-\	.	.	.	16ddd\)	.
.	.	.	.	16eee-\	.
8E-\J	.	.	.	16ddd\	.
.	.	.	.	16ccc\JJ	.
=155	=155	=155	=155	=155	=155
4E-\	4.r	4.r	4.r	(16gg\LL	.
.	.	.	.	16ccc\	.
.	.	.	.	16ddd\)	.
.	.	.	.	16eee-\	.
8r	.	.	.	16ddd\	.
.	.	.	.	16ccc\JJ	.
=156	=156	=156	=156	=156	=156
8D\L	4.r	4.r	4.r	(16ff\LL	6
.	.	.	.	16bb-\	.
8D\	.	.	.	16ccc\)	.
.	.	.	.	16ddd\	.
8D\J	.	.	.	16ccc\	.
.	.	.	.	16bb-\JJ	.
=157	=157	=157	=157	=157	=157
4D\	4.r	4.r	4.r	(16ff\LL	.
.	.	.	.	16bb-\	.
.	.	.	.	16ccc\)	.
.	.	.	.	16ddd\	.
8r	.	.	.	16ccc\	.
.	.	.	.	16bb-\JJ	.
=158	=158	=158	=158	=158	=158
8C/L	4.r	4.r	4.r	(16ee-\LL	n6
.	.	.	.	16aan\	.
8C/	.	.	.	16bb-\)	.
.	.	.	.	16ccc\	.
8C/J	.	.	.	16bb-\	.
.	.	.	.	16aa\JJ	.
=159	=159	=159	=159	=159	=159
4C/	4.r	4.r	4.r	(16ee-\LL	n6
.	.	.	.	16aan\	.
.	.	.	.	16bb-\)	.
.	.	.	.	16ccc\	.
8r	.	.	.	16bb-\	.
.	.	.	.	16aa\JJ	.
=160	=160	=160	=160	=160	=160
8BB-/L	4.r	4.r	4.r	(16dd\LL	6
.	.	.	.	16gg\	.
8BB-/	.	.	.	16aan\)	.
.	.	.	.	16bb-\	.
8BB-/J	.	.	.	16aa\	.
.	.	.	.	16gg\JJ	.
=161	=161	=161	=161	=161	=161
4BB-/	4.r	4.r	4.r	(16dd\LL	.
.	.	.	.	16gg\	.
.	.	.	.	16aan\)	.
.	.	.	.	16bb-\	.
8C/	.	.	.	16aa\	n6 5
.	.	.	.	16gg\JJ	.
=162	=162	=162	=162	=162	=162
8D\L	4.r	4.r	4.r	(16cc\LL	7 #
.	.	.	.	16ff#\	.
8D\	.	.	.	16gg\)	.
.	.	.	.	16aan\	.
8D\J	.	.	.	16gg\	.
.	.	.	.	16ff#\JJ	.
=163	=163	=163	=163	=163	=163
4D\	4.r	4.r	4.r	(16cc\LL	7 #
.	.	.	.	16ff#\	.
.	.	.	.	16gg\)	.
.	.	.	.	16aan\	.
8DD/	.	.	.	16gg\	.
.	.	.	.	16ff#\JJ	.
=164	=164	=164	=164	=164	=164
8GG/L	8G/L	8G/L	8G/L	4gg\	.
8G/	8g/	8g/	8g/	.	.
8GG/J	8G/J	8G/J	8G/J	8r	.
=165	=165	=165	=165	=165	=165
8GG/L	8G/L	8G/L	8G/L	4.r	.
8G/	8g/	8g/	8g/	.	.
8GG/J	8G/J	8G/J	8G/J	.	.
=166	=166	=166	=166	=166	=166
4GG/	4G/	4G/	4G/	(16d/LL	.
.	.	.	.	16b-/	.
.	.	.	.	16cc/)	.
.	.	.	.	16dd/	.
8r	8r	8r	8r	16cc/	.
.	.	.	.	16b-/JJ	.
=167	=167	=167	=167	=167	=167
4.r	4.r	4.r	4.r	(16d/LL	.
.	.	.	.	16an/	.
.	.	.	.	16b-/)	.
.	.	.	.	16cc/	.
.	.	.	.	16b-/	.
.	.	.	.	16a/JJ	.
=168	=168	=168	=168	=168	=168
4.r	4.r	4.r	4.r	(16d/LL	.
.	.	.	.	16g/	.
.	.	.	.	16an/)	.
.	.	.	.	16b-/	.
.	.	.	.	16a/	.
.	.	.	.	16g/JJ	.
=169	=169	=169	=169	=169	=169
8D\L	8d\L	8d/L	8d/L	4d/	#
8d\	8dd\	8dd/	8dd/	.	.
8D\J	8d\J	8d/J	8d/J	8r	.
=170	=170	=170	=170	=170	=170
8D\L	8d\L	8d/L	8d/L	4.r	#
8d\	8dd\	8dd/	8dd/	.	.
8D\J	8d\J	8d/J	8d/J	.	.
=171	=171	=171	=171	=171	=171
4D\	4d\	4d/	4d/	8dd\L	#
.	.	.	.	16cc\L	.
.	.	.	.	16b-\	.
8r	8r	8r	8r	16an\	.
.	.	.	.	16g\JJ	.
=172	=172	=172	=172	=172	=172
4.r	4.r	4.r	4.r	16f#/LL	.
.	.	.	.	16en/	.
.	.	.	.	16d/	.
.	.	.	.	16c/	.
.	.	.	.	16B-/	.
.	.	.	.	16An/JJ	.
=173	=173	=173	=173	=173	=173
8G/L	4.r	4.r	4.r	8G/L	.
8D/	.	.	.	8gg\	4
8DD/J	.	.	.	8ff#\J	#
=174	=174	=174	=174	=174	=174
*	*strophe	*	*	*	*
*	*^	*	*	*	*
*	*^	*	*	*	*	*
*	*^	*	*	*	*	*	*
*	*S/S	*S/M	*S/A	*S/D	*	*	*	*
8GG/L	4B-/	4B-/	4d\	4d\	8dd\L	8gg\L	8gg\L	.
16GG/L	.	.	.	.	8b-\	8dd\	8dd\	.
16AAn/	.	.	.	.	.	.	.	.
16BB-/	8B-/	8B-/	8d\	8d\	8dd\J	8gg\J	8gg\J	.
16AA/JJ	.	.	.	.	.	.	.	.
*	*S/fin	*S/fin	*S/fin	*S/fin	*	*	*	*
*	*v	*v	*v	*v	*	*	*	*
*	*S-	*	*	*	*
=175	=175	=175	=175	=175	=175
8GG/L	4B-/	8gg\L	8dd\L	8dd\L	.
16GG/L	.	8dd\	8b-\	8b-\	.
16AAn/	.	.	.	.	.
16BB-/	8B-/	8gg\J	8dd\J	8dd\J	.
16AA/JJ	.	.	.	.	.
=176	=176	=176	=176	=176	=176
8GG/L	4B-/	8dd\L	8gg\L	8gg\L	.
16GG/L	.	8b-\	8dd\	8dd\	.
16AAn/	.	.	.	.	.
16BB-/	8B-/	8dd\J	8gg\J	8gg\J	.
16GG/JJ	.	.	.	.	.
=177	=177	=177	=177	=177	=177
8C\L	4G/	8ee-\L	8gg\L	8gg\L	.
16C\L	.	8g\	8ee-\	8ee-\	.
16D\	.	.	.	.	.
16E-\	8c\	8ee-\J	8gg\J	8gg\J	.
16D\JJ	.	.	.	.	.
=178	=178	=178	=178	=178	=178
8C\L	4c\	8gg\L	8ee-\L	8ee-\L	.
16C\L	.	8ee-\	8g\	8g\	.
16D\	.	.	.	.	.
16E-\	8c\	8gg\J	8ee-\J	8ee-\J	.
16D\JJ	.	.	.	.	.
=179	=179	=179	=179	=179	=179
8C\L	4c\	8ee-\L	8gg\L	8gg\L	.
16C\L	.	8g\	8ee-\	8ee-\	.
16D\	.	.	.	.	.
16E-\	8c\	8ee-\J	8gg\J	8gg\J	.
*strophe	*	*	*	*	*
*^	*	*	*	*	*
*^	*	*	*	*	*	*
*^	*	*	*	*	*	*	*
*S/S	*S/M	*S/D	*S/A	*	*	*	*	*
16C\JJ	16C\JJ	16C\JJ	16D\JJ	.	.	.	.	.
*S/fin	*S/fin	*S/fin	*S/fin	*	*	*	*	*
*v	*v	*v	*v	*	*	*	*	*
*S-	*	*	*	*	*
=180	=180	=180	=180	=180	=180
8F\L	4An/	8cc\L	8ff\L	8ff\L	n
16F\L	.	8an\	8cc\	8cc\	.
16G\	.	.	.	.	.
16An\	8A/	8cc\J	8ff\J	8ff\J	.
16G\JJ	.	.	.	.	.
=181	=181	=181	=181	=181	=181
8F\L	4An/	8ff\L	8cc\L	8cc\L	n
16F\L	.	8cc\	8an\	8an\	.
16G\	.	.	.	.	.
16An\	8A/	8ff\J	8cc\J	8cc\J	.
16G\JJ	.	.	.	.	.
=182	=182	=182	=182	=182	=182
8F\L	4An/	8cc\L	8ff\L	8ff\L	n
16F\L	.	8an\	8cc\	8cc\	.
16G\	.	.	.	.	.
16An\	8A/	8cc\J	8ff\J	8ff\J	.
16F\JJ	.	.	.	.	.
=183	=183	=183	=183	=183	=183
8BB-/L	4F/	8dd\L	8ff\L	8ff\L	.
16BB-/L	.	8f\	8dd\	8dd\	.
16C/	.	.	.	.	.
16D/	8B-/	8dd\J	8ff\J	8ff\J	.
16C/JJ	.	.	.	.	.
=184	=184	=184	=184	=184	=184
8BB-/L	4B-/	8ff\L	8dd\L	8dd\L	.
16BB-/L	.	8dd\	8f\	8f\	.
16C/	.	.	.	.	.
16D/	8B-/	8ff\J	8dd\J	8dd\J	.
16C/JJ	.	.	.	.	.
=185	=185	=185	=185	=185	=185
8BB-/L	4B-/	8dd\L	8ff\L	8ff\L	.
16BB-/L	.	8f\	8dd\	8dd\	.
16C/	.	.	.	.	.
16D/	8B-/	8dd\J	8ff\J	8ff\J	.
16BB-/JJ	.	.	.	.	.
=186	=186	=186	=186	=186	=186
8E-\L	4G/	8b-/L	8ee-\L	8ee-\L	.
16E-\L	.	8g/	8b-\	8b-\	.
16F\	.	.	.	.	.
16G\	8G/	8b-/J	8ee-\J	8ee-\J	.
16F\JJ	.	.	.	.	.
=187	=187	=187	=187	=187	=187
8E-\L	4G/	8ee-\L	8b-/L	8b-/L	.
16E-\L	.	8b-\	8g/	8g/	.
16F\	.	.	.	.	.
16G\	8G/	8ee-\J	8b-/J	8b-/J	.
16F\JJ	.	.	.	.	.
=188	=188	=188	=188	=188	=188
8E-\L	4G/	8b-/L	8ee-\L	8ee-\L	.
16E-\L	.	8g/	8b-\	8b-\	.
16F\	.	.	.	.	.
16G\	8g\	8b-/J	8ee-\J	8ee-\J	.
16E-\JJ	.	.	.	.	.
=189	=189	=189	=189	=189	=189
8D\L	4an\	8cc\L	8ff#\L	8ff#\L	7 n5 #
16D\L	.	8an\	8cc\	8cc\	.
16E\	.	.	.	.	.
16F#\	8c\	8aan\J	8ff#\J	8ff#\J	.
16E\JJ	.	.	.	.	.
=190	=190	=190	=190	=190	=190
8D\L	4c\	8ff#\L	8aan\L	8aan\L	7 n5 #
16D\L	.	8cc\	8ff#\	8ff#\	.
16En\	.	.	.	.	.
16F#\	8c\	8ff#\J	8aa\J	8aa\J	.
16E\JJ	.	.	.	.	.
=191	=191	=191	=191	=191	=191
8D\L	8c\L	8aan\L	8ff#\L	8ff#\L	7 n5 #
16D\L	8an\	8ff#\	8cc\	8cc\	.
16En\	.	.	.	.	.
16F#\	8f#\J	8cc\J	8aan\J	8aan\J	.
16D\JJ	.	.	.	.	.
=192	=192	=192	=192	=192	=192
8GG/L	8d\L	8b-\L	8b-\L	8b-\L	.
8G/	8b-\	8gg\	8gg\	8gg\	.
8GG/J	8g\J	8bb-\J	8bb-\J	8bb-\J	.
=193	=193	=193	=193	=193	=193
8GG/L	8d\L	8gg\L	8gg\L	8gg\L	.
8G/	8b-\	8dd\	8dd\	8dd\	.
8GG/J	8g\J	8b-\J	8b-\J	8b-\J	.
=194	=194	=194	=194	=194	=194
8GG/L	8d/L	8g/L	8g/L	8g/L	.
8G/	8B-/	8d/	8d/	8d/	.
8GG/J	8G/J	8B-/J	8B-/J	8B-/J	.
=195	=195	=195	=195	=195	=195
4GG/	4G/	4G/	4G/	(16d\LL	.
.	.	.	.	16b-\	.
.	.	.	.	16gg\)	.
.	.	.	.	16bb-\	.
8r	8r	8r	8r	16aan\	.
.	.	.	.	16gg\JJ	.
=196	=196	=196	=196	=196	=196
4D\	4.r	4.r	4.r	(16d\LL	#
.	.	.	.	16an\	.
.	.	.	.	16ff#\)	.
.	.	.	.	16aan\	.
8r	.	.	.	16gg\	.
.	.	.	.	16ff#\JJ	.
=197	=197	=197	=197	=197	=197
4GG/	4.r	4.r	4.r	(16d\LL	.
.	.	.	.	16b-\	.
.	.	.	.	16gg\)	.
.	.	.	.	16bb-\	.
8r	.	.	.	16aan\	.
.	.	.	.	16gg\JJ	.
=198	=198	=198	=198	=198	=198
*	*	*	*	*strophe	*
*	*	*	*	*^	*
*	*	*	*	*^	*	*
*	*	*	*	*^	*	*	*
*	*	*	*	*S/S	*S/M	*S/D	*S/A	*
8D\L	4.r	4.r	4.r	4d/ 4an/ 4ff#/	4d/ 4an/ 4ff#/	4d/ 4an/ 4ff#/	4d/ 4g/ 4ff#/	#
*	*	*	*	*S/fin	*S/fin	*S/fin	*S/fin	*
*	*	*	*	*v	*v	*v	*v	*
*	*	*	*	*S-	*
8d\	.	.	.	.	.
8D\J	.	.	.	8r	.
=199	=199	=199	=199	=199	=199
4GG/	4.r	8g\L	8g\L	16bbn\LL	n
.	.	.	.	16ccc\	.
.	.	8bn\	8bn\	16ddd\	.
.	.	.	.	16bb\	.
*	*	*	*	*strophe	*
*	*	*	*	*^	*
*	*	*	*	*^	*	*
*	*	*	*	*^	*	*	*
*	*	*	*	*S/S	*S/D	*S/A	*S/M	*
8r	.	8dd\J	8dd\J	16ff\	16ff\	16gg\	16dd	.
*	*	*	*	*S/fin	*S/fin	*S/fin	*S/fin	*
*	*	*	*	*v	*v	*v	*v	*
*	*	*	*	*S-	*
.	.	.	.	16bb\JJ	.
=200	=200	=200	=200	=200	=200
4.r	4.r	8ee-\L	8ee-\L	16ccc\LL	.
.	.	.	.	16ddd\	.
.	.	8cc\	8cc\	16eee-\	.
.	.	.	.	16ccc\	.
.	.	8ee-\J	8ee-\J	16gg\	.
.	.	.	.	16ccc\JJ	.
=201	=201	=201	=201	=201	=201
4.r	4.r	8f/L	8f/L	16aan\LL	.
.	.	.	.	16bb-\	.
.	.	8an/	8an/	16ccc\	.
.	.	.	.	16aa\	.
.	.	8cc/J	8cc/J	16ee-\	.
.	.	.	.	16aa\JJ	.
=202	=202	=202	=202	=202	=202
4.r	4.r	8dd\L	8dd\L	16bb-\LL	.
.	.	.	.	16ccc\	.
.	.	8b-\	8b-\	16ddd\	.
.	.	.	.	16bb-\	.
.	.	8dd\J	8dd\J	16ff\	.
.	.	.	.	16bb-\JJ	.
=203	=203	=203	=203	=203	=203
4.r	4.r	8e-/L	8e-/L	16gg\LL	.
.	.	.	.	16aan\	.
.	.	8g/	8g/	16bb-\	.
.	.	.	.	16gg\	.
.	.	8b-/J	8b-/J	16dd\	.
.	.	.	.	16gg\JJ	.
=204	=204	=204	=204	=204	=204
4.r	4.r	8cc\L	8cc\L	16aan\LL	.
.	.	.	.	16bb-\	.
.	.	8an\	8an\	16ccc\	.
.	.	.	.	16aa\	.
.	.	8cc\J	8cc\J	16ee-\	.
.	.	.	.	16aa\JJ	.
=205	=205	=205	=205	=205	=205
4.r	4.r	8d/L	8d/L	16ff#\LL	.
.	.	.	.	16gg\	.
.	.	8dd/	8dd/	16aan\	.
.	.	.	.	16ff#\	.
.	.	8cc/J	8cc/J	16dd\	.
.	.	.	.	16ff#\JJ	.
=206	=206	=206	=206	=206	=206
4.r	4.r	8b-/L	8b-/L	16gg\LL	.
.	.	.	.	16aan\	.
.	.	8g/	8g/	16bb-\	.
*	*	*	*	*strophe	*
*	*	*	*	*^	*
*	*	*	*	*^	*	*
*	*	*	*	*^	*	*	*
*	*	*	*	*S/S	*S/D	*S/M	*S/A	*
.	.	.	.	16gg\	16gg\	16gg\	16aa\	.
*	*	*	*	*S/fin	*S/fin	*S/fin	*S/fin	*
*	*	*	*	*v	*v	*v	*v	*
*	*	*	*	*S-	*
.	.	8b-/J	8b-/J	16dd\	.
.	.	.	.	16gg\JJ	.
=207	=207	=207	=207	=207	=207
4.r	4.r	8cc/L	8cc/L	16ee-\LL	.
.	.	.	.	16ff\	.
.	.	8c/	8c/	16gg\	.
.	.	.	.	16ee-\	.
.	.	8e-/J	8e-/J	16cc\	.
.	.	.	.	16ee-\JJ	.
=208	=208	=208	=208	=208	=208
4.r	4.r	8f/	8f/	16an/LL	.
.	.	.	.	16b-/	.
.	.	4An/	4An/	16cc/	.
.	.	.	.	16a/	.
.	.	.	.	16f/	.
.	.	.	.	16ee-/JJ	.
=209	=209	=209	=209	=209	=209
8r	4.r	4B-/	4B-/	8dd\L	.
8r	.	.	.	8ff\	.
8B-\	.	8r	8r	8bb-\J	.
=210	=210	=210	=210	=210	=210
4f\	4.r	4.r	4.r	8f\L	.
.	.	.	.	16aan\L	.
.	.	.	.	16gg\J	.
8r	.	.	.	8aa\J	.
=211	=211	=211	=211	=211	=211
8e-\	4.r	4.r	4.r	8e-/L	.
8r	.	.	.	8gg/	.
8e-\	.	.	.	8e-/J	.
=212	=212	=212	=212	=212	=212
4d\	4.r	4.r	4.r	8d\L	n
.	.	.	.	16ff\L	.
.	.	.	.	16ee-\J	.
8r	.	.	.	8ff\J	.
=213	=213	=213	=213	=213	=213
8c\	4.r	4.r	4.r	8c/L	.
8r	.	.	.	8ee-/	.
8c\	.	.	.	8c/J	.
=214	=214	=214	=214	=214	=214
4B-\	4.r	4.r	4.r	8B-/L	.
.	.	.	.	16dd/L	.
.	.	.	.	16cc/J	.
8r	.	.	.	8dd/J	.
=215	=215	=215	=215	=215	=215
8An\	4.r	4.r	4.r	8An/L	6
8r	.	.	.	8cc/	.
8A\	.	.	.	8A/J	.
=216	=216	=216	=216	=216	=216
4G\	4.r	4.r	4.r	8G/L	.
.	.	.	.	16b-/L	.
.	.	.	.	16an/J	.
8r	.	.	.	8b-/J	.
=217	=217	=217	=217	=217	=217
[4.AAn/	4.r	4.r	4.r	(16f/LL	.
.	.	.	.	16g/	.
.	.	.	.	16an/	.
.	.	.	.	16b-/	.
.	.	.	.	16cc/	.
.	.	.	.	16dd/JJ)	.
*>S218	*>S218	*>S218	*>S218	*>S218	*>S218
!! Selfridge-Field edition.
=218	=218	=218	=218	=218	=218
4.AA/]	4.r	4.r	4.r	(16f/LL	.
.	.	.	.	16ee-/	.
.	.	.	.	16f/	.
.	.	.	.	16dd/	.
.	.	.	.	16f/	.
.	.	.	.	16cc/JJ)	.
*>A218	*>A218	*>A218	*>A218	*>A218	*>A218
!! Amsterdam print.
=218	=218	=218	=218	=218	=218
4.AA/]	4.r	4.r	4.r	(8ee-/L	.
.	.	.	.	8dd/	.
.	.	.	.	8cc/J)	.
*>etc7	*>etc7	*>etc7	*>etc7	*>etc7	*>etc7
=219	=219	=219	=219	=219	=219
[4.BB-/	4.r	4.r	4.r	(16b-\LL	.
.	.	.	.	16cc\	.
.	.	.	.	16dd\	.
.	.	.	.	16ee-\	.
.	.	.	.	16ff\	.
.	.	.	.	16gg\JJ)	.
*>S220	*>S220	*>S220	*>S220	*>S220	*>S220
!! Selfridge-Field edition.
=220	=220	=220	=220	=220	=220
4.BB-/]	4.r	4.r	4.r	(16b-\LL	.
.	.	.	.	16aa-\	.
.	.	.	.	16b-\	.
.	.	.	.	16gg\	.
.	.	.	.	16b-\	.
.	.	.	.	16ff\JJ)	.
*>A220	*>A220	*>A220	*>A220	*>A220	*>A220
!! Amsterdam print.
=220	=220	=220	=220	=220	=220
4.BB-/]	4.r	4.r	4.r	(8aa-\L	.
.	.	.	.	8gg\	.
.	.	.	.	8ff\J)	.
*>M220	*>M220	*>M220	*>M220	*>M220	*>M220
!! Manchester partbooks.
=220	=220	=220	=220	=220	=220
4.BB-/]	4.r	4.r	4.r	4gg\	.
.	.	.	.	8r	.
*>etc8	*>etc8	*>etc8	*>etc8	*>etc8	*>etc8
=221	=221	=221	=221	=221	=221
[4.E-\	4.r	4.r	4.r	(16e-/LL	.
.	.	.	.	16f/	.
.	.	.	.	16g/	.
.	.	.	.	16a-/	.
.	.	.	.	16b-/	.
.	.	.	.	16cc/JJ)	.
*>S222	*>S222	*>S222	*>S222	*>S222	*>S222
!! Selfridge-Field edition.
=222	=222	=222	=222	=222	=222
4.E-\]	4.r	4.r	4.r	(16e-/LL	.
.	.	.	.	16dd-/	.
.	.	.	.	16e-/	.
.	.	.	.	16cc/	.
.	.	.	.	16e-/	.
.	.	.	.	16b-/JJ)	.
*>A222	*>A222	*>A222	*>A222	*>A222	*>A222
!! Amsterdam print.
=222	=222	=222	=222	=222	=222
4.E-\]	4.r	4.r	4.r	(8dd-/L	.
.	.	.	.	8cc/	.
.	.	.	.	8b-/J)	.
*>D222	*>D222	*>D222	*>D222	*>D222	*>D222
!! Dresden manuscript.
=222	=222	=222	=222	=222	=222
4A-\	4.r	4.r	4.r	4e- 4cc	.
8r	.	.	.	8r	.
*>etc9	*>etc9	*>etc9	*>etc9	*>etc9	*>etc9
=223	=223	=223	=223	=223	=223
4A-\	4.r	4.r	4.r	16cc\LL	.
.	.	.	.	16dd\	.
.	.	.	.	16ee-\	.
.	.	.	.	16dd\	.
8g\	.	.	.	16ee-\	6
.	.	.	.	16g\JJ	.
=224	=224	=224	=224	=224	=224
8f\	4.r	4.r	4.r	16f\LL	7 n
.	.	.	.	16ee-\	.
8r	.	.	.	16dd\	.
.	.	.	.	16cc\	.
8f\	.	.	.	16dd\	6
.	.	.	.	16f\JJ	.
=225	=225	=225	=225	=225	=225
8e-\	4.r	4.r	4.r	16e-/LL	7
.	.	.	.	16dd/	.
8r	.	.	.	16cc/	.
.	.	.	.	16b-/	.
8e-\	.	.	.	16cc/	6
.	.	.	.	16e-/JJ	.
=226	=226	=226	=226	=226	=226
8d\	4.r	4.r	4.r	16d/LL	7
.	.	.	.	16cc/	.
8r	.	.	.	16b-/	.
.	.	.	.	16a-/	.
8d\	.	.	.	16b-/	6
.	.	.	.	16d/JJ	.
=227	=227	=227	=227	=227	=227
8c\	4.r	4.r	4.r	16c/LL	7
.	.	.	.	16b-/	.
8r	.	.	.	16a-/	.
.	.	.	.	16g/	.
8c\	.	.	.	16a-/	6
.	.	.	.	16c/JJ	.
=228	=228	=228	=228	=228	=228
8B-\	4.r	4.r	4.r	16B-/LL	7
.	.	.	.	16a-/	.
8r	.	.	.	16g/	.
.	.	.	.	16f/	.
8B-\	.	.	.	16g/	6
.	.	.	.	16B-/JJ	.
=229	=229	=229	=229	=229	=229
8A-\	4.r	4.r	4.r	16A-/LL	7
.	.	.	.	16g/	.
8r	.	.	.	16f/	.
.	.	.	.	16e-/	.
8A-\	.	.	.	16f/	6
.	.	.	.	16A-/JJ	.
=230	=230	=230	=230	=230	=230
8E-\L	8e-\L	8e-/L	8e-/L	8G/L	.
8c\	8ee-\	8ee-/	8ee-/	8ee-/	.
8E-\J	8e-\J	8e-/J	8e-/J	8e-/J	.
=231	=231	=231	=231	=231	=231
8D\L	8d\L	8d/L	8d/L	8d/L	6
8d\	8dd\	8dd/	8dd/	8dd/	.
8D\J	8d\J	8d/J	8d/J	8d/J	.
=232	=232	=232	=232	=232	=232
8C\L	8c\L	8c/L	8c/L	8c/L	.
8c\	8cc\	8cc/	8cc/	8cc/	.
8C\J	8c\J	8c/J	8c/J	8c/J	.
=233	=233	=233	=233	=233	=233
8BB-\L	8B-\L	8B-/L	8B-/L	8B-/L	.
8B-\	8b-\	8b-/	8b-/	8b-/	.
8BB-\J	8B-\J	8B-/J	8B-/J	8B-/J	.
=234	=234	=234	=234	=234	=234
8AA-/L	8A-\L	8A-/L	8A-/L	8A-/L	.
8A-/	8a-\	8a-/	8a-/	8a-/	.
8AA-/J	8A-\J	8A-/J	8A-/J	8A-/J	.
=235	=235	=235	=235	=235	=235
4GG/	4G/	4G/	4G/	(8gg\L	6 4
.	.	.	.	8aa-\	.
8E-\	8r	8r	8r	8bb-\J)	.
=236	=236	=236	=236	=236	=236
4.A-\	4.r	4.r	4.r	(8c/L	7
.	.	.	.	8f/	.
.	.	.	.	8a-/J)	.
=237	=237	=237	=237	=237	=237
4.D\	4.r	4.r	4.r	(8ff\L	7
.	.	.	.	8gg\	.
.	.	.	.	8aa-\J)	.
=238	=238	=238	=238	=238	=238
4.G\	4.r	4.r	4.r	(8B-/L	7
.	.	.	.	8e-/	.
.	.	.	.	8g/J)	.
=239	=239	=239	=239	=239	=239
4.C/	4.r	4.r	4.r	(8ee-\L	7
.	.	.	.	8ff\	.
.	.	.	.	8gg\J)	.
=240	=240	=240	=240	=240	=240
4.F\	4.r	4.r	4.r	(8A-/L	7
.	.	.	.	8d/	.
.	.	.	.	8f/J)	.
=241	=241	=241	=241	=241	=241
4.BB-/	4.r	4.r	4.r	(8dd\L	7
.	.	.	.	8ee-\	.
.	.	.	.	8ff\J)	.
=242	=242	=242	=242	=242	=242
8E-\L	8e-\L	8e-/L	8e-/L	4G/	.
8e-\	8ee-\	8ee-/	8ee-/	.	.
8E-\J	8e-\J	8e-/J	8e-/J	8r	.
*>etc10	*>etc10	*>etc10	*>etc10	*>etc10	*>etc10
=243	=243	=243	=243	=243	=243
8E-\L	4e-\	4e-/	4e-/	16e-/LL	.
.	.	.	.	16ee-/	.
8E-\	.	.	.	16e-/	.
.	.	.	.	16ee-/	.
8E-\J	8r	8r	8r	16e-/	.
.	.	.	.	16ee-/JJ	.
=244	=244	=244	=244	=244	=244
8E-\L	4.r	4.r	4.r	16e-/LL	7b
.	.	.	.	16dd-/	.
8E-\	.	.	.	16e-/	.
.	.	.	.	16dd-/	.
8E-\J	.	.	.	16e-/	.
.	.	.	.	16dd-/JJ	.
=245	=245	=245	=245	=245	=245
8E-\L	4.r	4.r	4.r	16e-/LL	6 4
.	.	.	.	16cc/	.
8E-\	.	.	.	16e-/	.
.	.	.	.	16cc/	.
8E-\J	.	.	.	16e-/	.
.	.	.	.	16cc/JJ	.
=246	=246	=246	=246	=246	=246
8E-\L	4.r	4.r	4.r	16e-/LL	5
.	.	.	.	16b-/	.
8E-\	.	.	.	16e-/	.
.	.	.	.	16b-/	.
8E-\J	.	.	.	16e-/	.
.	.	.	.	16b-/JJ	.
=247	=247	=247	=247	=247	=247
4.r	8B-/L	8B-/L	8B-/L	16b-\LL	.
.	.	.	.	16bb-\	.
.	8B-/	8B-/	8B-/	16b-\	.
.	.	.	.	16bb-\	.
.	8B-/J	8B-/J	8B-/J	16b-\	.
.	.	.	.	16bb-\JJ	.
=248	=248	=248	=248	=248	=248
4.r	8B-/L	8B-/L	8B-/L	16b-\LL	.
.	.	.	.	16aa-\	.
.	8B-/	8B-/	8B-/	16b-\	.
.	.	.	.	16aa-\	.
.	8B-/J	8B-/J	8B-/J	16b-\	.
.	.	.	.	16aa-\JJ	.
=249	=249	=249	=249	=249	=249
4.r	8B-/L	8B-/L	8B-/L	16b-\LL	.
.	.	.	.	16gg\	.
.	8B-/	8B-/	8B-/	16b-\	.
.	.	.	.	16gg\	.
.	8B-/J	8B-/J	8B-/J	16b-\	.
.	.	.	.	16gg\JJ	.
*>S250	*>S250	*>S250	*>S250	*>S250	*>S250
!! Selfridge-Field edition.
=250	=250	=250	=250	=250	=250
8BB-/L	8d\L	8f/L	8b-\L	8b-\L 8ff/	.
8BB-/	8d\	8f/	8b-\	8b-\ 8ff/	.
8BB-/J	8d\J	8f/J	8b-\J	8b-\J 8ff/	.
*>M250	*>M250	*>M250	*>M250	*>M250	*>M250
!! Manchester partbooks.
=250	=250	=250	=250	=250	=250
8BB-/L	8d\L	8f/L	8b-\L	4.b-\L 4.ff/	.
8BB-/	8d\	8f/	8b-\	.	.
8BB-/J	8d\J	8f/J	8b-\J	.	.
*>etc11	*>etc11	*>etc11	*>etc11	*>etc11	*>etc11
=251	=251	=251	=251	=251	=251
4BB-/	4d\	4f/	(16b-\LL	(16b-\LL	.
.	.	.	16cc\	16cc\	.
.	.	.	16dd\	16dd\	.
.	.	.	16ee-\J	16ee-\J	.
8r	8r	8r	8ff\J)	8ff\J)	.
=252	=252	=252	=252	=252	=252
8BB-/L	8d\L	8f/L	8b-\L	8b-\L 8ff/	.
8BB-/	8d\	8f/	8b-\	8b-\ 8ff/	.
8BB-/J	8d\J	8f/J	8b-\J	8b-\J 8ff/	.
=253	=253	=253	=253	=253	=253
4BB-/	4d\	4f/	(16b-\LL	(16b-\LL	.
.	.	.	16cc\	16cc\	.
.	.	.	16dd\	16dd\	.
.	.	.	16ee-\	16ee-\	.
8r	8r	8r	16ff\	16ff\	.
.	.	.	16gg\JJ)	16gg\JJ)	.
=254	=254	=254	=254	=254	=254
8BB-/L	8d\L	8f/L	8b-\L	8b-\L 8ff/	.
8BB-/	8d\	8f/	8b-\	8b-\ 8ff/	.
8BB-/J	8d\J	8f/J	8b-\J	8b-\J 8ff/	.
=255	=255	=255	=255	=255	=255
4BB-/	4d\	4f/	(16b-\LL	(16b-\LL	.
.	.	.	16cc\	16cc\	.
.	.	.	16dd\	16dd\	.
.	.	.	16ee-\	16ee-\	.
8r	8r	8r	16ff\	16ff\	.
.	.	.	32gg\L	32gg\L	.
.	.	.	32aa-\JJJ)	32aa-\JJJ)	.
=256	=256	=256	=256	=256	=256
8BB-/L	8d\L	8f/L	8b-\L	8b-\L 8ff/	.
8BB-/	8d\	8f/	8b-\	8b-\ 8ff/	.
8BB-/J	8d\J	8f/J	8b-\J	8b-\J 8ff/	.
=257	=257	=257	=257	=257	=257
4BB-/	4d\	4f/	(16b-\LL	(16b-\LL	.
.	.	.	16cc\	16cc\	.
.	.	.	16dd\	16dd\	.
.	.	.	16ee-\	16ee-\	.
8r	8r	8r	32ff\L	32ff\L	.
.	.	.	32gg\	32gg\	.
.	.	.	32aa-\	32aa-\	.
.	.	.	32bb-\JJJ)	32bb-\JJJ)	.
=258	=258	=258	=258	=258	=258
16G\LL	8e-\	8g/L	8b-/L	8b-/L	6
16A-\J	.	.	.	.	.
8B-\	4d\	(16d/L	(16f/L	(16f/L	7
.	.	16e-/J	16g/J	16g/J	.
8BB-\J	.	8f/J)	8a-/J)	8a-/J)	.
=259	=259	=259	=259	=259	=259
*	*strophe	*	*	*	*
*	*^	*	*	*	*
*	*^	*	*	*	*	*
*	*^	*	*	*	*	*	*
*	*S/S	*S/M	*S/D	*S/A	*	*	*	*
4.BB-/	4.d\	4.d\	4d\	4d\	(8f/L	(8a-/L	(8a-/L	7
.	.	.	.	.	8e-/	8g/	8g/	.
.	.	.	8r	8r	8d/J)	8f/J)	8f/J)	.
*	*S/fin	*S/fin	*S/fin	*S/fin	*	*	*	*
*	*v	*v	*v	*v	*	*	*	*
*	*S-	*	*	*	*
=260	=260	=260	=260	=260	=260
8E-\L	8G/	8b-/L	8ee-/L	8ee-/L	.
8B-\	4d\	(16d/L	(16f/L	(16f/L	7
.	.	16e-/J	16g/J	16g/J	.
8BB-\J	.	8f/J)	8a-/J)	8a-/J)	.
=261	=261	=261	=261	=261	=261
4.BB-/	4.d\	(8f/L	(8a-/L	(8a-/L	7
.	.	8e-/	8g/	8g/	.
.	.	8d/J)	8f/J)	8f/J)	.
=262	=262	=262	=262	=262	=262
8E-\L	8g\L	8ee-/L	8ee-/L	8ee-/L	.
8B-\	8d\	8B-/	8B-/	8B-/	5 4
8BB-\J	8f\J	8dd/J	8dd/J	8dd/J	3
=263	=263	=263	=263	=263	=263
8EE-/L	8E-/L	8e-/L	8e-/L	16e-/LL	.
.	.	.	.	16B-/	.
8EE-/	8E-/	8e-/	8e-/	16B-/	.
.	.	.	.	16e-/	.
8EE-/J	8E-/J	8e-/J	8e-/J	16e-/	.
.	.	.	.	16g/JJ	.
=264	=264	=264	=264	=264	=264
8EE-/L	8E-/L	8e-/L	8e-/L	16g/LL	.
.	.	.	.	16e-/	.
16EE-/L	16E-/L	16e-/L	16e-/L	16e-/	.
16EE-/	16E-/	16e-/	16e-/	16g/	.
16EE-/	16E-/	16e-/	16e-/	16g/	.
16EE-/JJ	16E-/JJ	16e-/JJ	16e-/JJ	16b-/JJ	.
=265	=265	=265	=265	=265	=265
8EE-/L	8E-/L	8e-/L	8e-/L	16b-\LL	.
.	.	.	.	16g\	.
8EE-/	8E-/	8e-/	8e-/	16g\	.
.	.	.	.	16b-\	.
8EE-/J	8E-/J	8e-/J	8e-/J	16b-\	.
.	.	.	.	16ee-\JJ	.
=266	=266	=266	=266	=266	=266
8EE-/L	8E-/L	8e-/L	8e-/L	16ee-\LL	.
.	.	.	.	16b-\	.
16EE-/L	16E-/L	16e-/L	16e-/L	16b-\	.
16EE-/	16E-/	16e-/	16e-/	16ee-\	.
16EE-/	16E-/	16e-/	16e-/	16ee-\	.
16EE-/JJ	16E-/JJ	16e-/JJ	16e-/JJ	16gg\JJ	.
=267	=267	=267	=267	=267	=267
8EE-/L	8E-/L	8e-/L	8e-/L	16gg\LL	.
.	.	.	.	16ee-\	.
8EE-/	8E-/	8e-/	8e-/	16ee-\	.
.	.	.	.	16bb-\	.
8EE-/J	8E-/J	8e-/J	8e-/J	16bb-\	.
.	.	.	.	16eee-\JJ	.
=268	=268	=268	=268	=268	=268
8EE-/L	8E-/L	8e-/L	8e-/L	16eee-\LL	.
.	.	.	.	16bb-\	.
16EE-/L	16E-/L	16e-/L	16e-/L	16bb-\	.
16EE-/	16E-/	16e-/	16e-/	16gg\	.
16EE-/	16E-/	16e-/	16e-/	16gg\	.
16EE-/JJ	16E-/JJ	16e-/JJ	16e-/JJ	16ee-\JJ	.
=269	=269	=269	=269	=269	=269
8EE-/L	8E-/L	8e-/L	8e-/L	16ee-/LL	.
.	.	.	.	16b-/	.
8EE-/	8E-/	8e-/	8e-/	16b-/	.
.	.	.	.	16g/	.
8EE-/J	8E-/J	8e-/J	8e-/J	16g/	.
.	.	.	.	16e-/JJ	.
=270	=270	=270	=270	=270	=270
*	*	*	*	*^	*
8EE-/L	16E-/LL	16e-/LL	16e-/LL	16r	[4.e-/	.
.	16E-/	16e-/	16e-/	16B-\LL	.	.
8E-/	16E-/	16e-/	16e-/	16B-\	.	.
.	16E-/	16e-/	16e-/	16G\	.	.
8EE-/J	16E-/	16e-/	16e-/	16G\	.	.
.	16E-/JJ	16e-/JJ	16e-/JJ	16B-\JJ	.	.
=271	=271	=271	=271	=271	=271	=271
8EE-/L	16E-/LL	16e-/LL	16e-/LL	16B-\LL	4.e-/]	.
.	16E-/	16e-/	16e-/	16G\	.	.
8E-/	16E-/	16e-/	16e-/	16G\	.	.
.	16E-/	16e-/	16e-/	16B-\	.	.
8EE-/J	16E-/	16e-/	16e-/	16B-\	.	.
.	16E-/JJ	16e-/JJ	16e-/JJ	16G\JJ	.	.
=272	=272	=272	=272	=272	=272	=272
8EE-/L	16E-/LL	16e-/LL	16e-/LL	16r	[4.b-/	.
.	16E-/	16e-/	16e-/	16g\LL	.	.
8E-/	16E-/	16e-/	16e-/	16g\	.	.
.	16E-/	16e-/	16e-/	16e-\	.	.
8EE-/J	16E-/	16e-/	16e-/	16e-\	.	.
.	16E-/JJ	16e-/JJ	16e-/JJ	16g\JJ	.	.
=273	=273	=273	=273	=273	=273	=273
8EE-/L	16E-/LL	16e-/LL	16e-/LL	16g\LL	4.b-/]	.
.	16E-/	16e-/	16e-/	16e-\	.	.
8E-/	16E-/	16e-/	16e-/	16e-\	.	.
.	16E-/	16e-/	16e-/	16g\	.	.
8EE-/J	16E-/	16e-/	16e-/	16g\	.	.
.	16E-/JJ	16e-/JJ	16e-/JJ	16e-\JJ	.	.
=274	=274	=274	=274	=274	=274	=274
8EE-/L	16E-/LL	16e-/LL	16e-/LL	16r	[4.gg/	.
.	16E-/	16e-/	16e-/	16ee-\LL	.	.
8E-/	16E-/	16e-/	16e-/	16ee-\	.	.
.	16E-/	16e-/	16e-/	16b-\	.	.
8EE-/J	16E-/	16e-/	16e-/	16b-\	.	.
.	16E-/JJ	16e-/JJ	16e-/JJ	16ee-\JJ	.	.
=275	=275	=275	=275	=275	=275	=275
8EE-/L	16E-/LL	16e-/LL	16e-/LL	16ee-\LL	4.gg/]	.
.	16E-/	16e-/	16e-/	16b-\	.	.
8E-/	16E-/	16e-/	16e-/	16b-\	.	.
.	16E-/	16e-/	16e-/	16ee-\	.	.
8EE-/J	16E-/	16e-/	16e-/	16ee-\	.	.
.	16E-/JJ	16e-/JJ	16e-/JJ	16b-\JJ	.	.
*	*	*	*	*v	*v	*
=276	=276	=276	=276	=276	=276
4EE-/	4E-/	4e-/	4e-/	(32bb-/LLL	.
.	.	.	.	32aa-/	.
.	.	.	.	32gg/	.
.	.	.	.	32ff/JJJ	.
.	.	.	.	32ee-/LLL	.
.	.	.	.	32dd/	.
.	.	.	.	32cc/	.
.	.	.	.	32b-/JJJ	.
8r	8r	8r	8r	32a-/LLL	.
.	.	.	.	32g/	.
.	.	.	.	64f/L	.
.	.	.	.	64e-/	.
.	.	.	.	64d/	.
.	.	.	.	64c/JJJJ)	.
=277	=277	=277	=277	=277	=277
8BB-\L	8B-\L	8B-/L	8B-/L	8B-/L	.
8B-\	8b-\	8b-/	8b-/	8b-/	.
8BB-\J	8B-\J	8B-/J	8B-/J	8B-/J	.
=278	=278	=278	=278	=278	=278
8BB-/L	8B-/L	8B-/L	8B-/L	8B-/L	.
8BB-/	8B-/	8B-/	8B-/	8B-/	.
8BB-/J	8B-/J	8B-/J	8B-/J	8B-/J	.
=279	=279	=279	=279	=279	=279
4.r	4.r	4.r	4.r	(32aa-/LLL	.
.	.	.	.	32gg/	.
.	.	.	.	32ff/	.
.	.	.	.	32ee-/JJJ	.
.	.	.	.	32dd/LLL	.
.	.	.	.	32cc/	.
.	.	.	.	32b-/	.
.	.	.	.	32a-/JJJ	.
.	.	.	.	32g/LLL	.
.	.	.	.	32f/	.
.	.	.	.	64e-/L	.
.	.	.	.	64d/	.
.	.	.	.	64c/	.
.	.	.	.	64B-/JJJJ)	.
=280	=280	=280	=280	=280	=280
8AA-/L	8A-\L	8A-/L	8A-/L	8A-/L	.
8A-/	8a-\	8a-/	8a-/	8a-/	.
8AA-/J	8A-\J	8A-/J	8A-/J	8A-/J	.
=281	=281	=281	=281	=281	=281
8AA-/L	8A-/L	8A-/L	8A-/L	8A-/L	.
8AA-/	8A-/	8A-/	8A-/	8A-/	.
8AA-/J	8A-/J	8A-/J	8A-/J	8A-/J	.
=282	=282	=282	=282	=282	=282
4.r	4.r	4.r	4.r	(32gg/LLL	.
.	.	.	.	32ff/	.
.	.	.	.	32ee-/	.
.	.	.	.	32dd/JJJ	.
.	.	.	.	32cc/LLL	.
.	.	.	.	32b-/	.
.	.	.	.	32a-/	.
.	.	.	.	32g/JJJ	.
.	.	.	.	32f/LLL	.
.	.	.	.	32e-/	.
.	.	.	.	64d/L	.
.	.	.	.	64c/	.
.	.	.	.	64B-/	.
.	.	.	.	64A-/JJJJ)	.
=283	=283	=283	=283	=283	=283
8GG/L	8G/L	8G/L	8G/L	8G/L	6
8G/	8g/	8g/	8g/	8g/	.
8GG/J	8G/J	8G/J	8G/J	8G/J	.
=284	=284	=284	=284	=284	=284
8GG/L	8G/L	8G/L	8G/L	8G/L	.
8GG/	8G/	8G/	8G/	8G/	.
8GG/J	8G/J	8G/J	8G/J	8G/J	.
=285	=285	=285	=285	=285	=285
8EE-/L	16G/LL	16B-/LL	16e-/LL	16e-/LL	.
.	16G/JJ	16B-/	16e-/	16e-/	.
8E-/	16B-/LL	16e-/	16g/	16g/	.
.	16B-/JJ	16e-/	16g/	16g/	.
8EE-/J	16e-/LL	16g/	16b-/	16b-/	.
.	16e-/JJ	16g/JJ	16b-/JJ	16b-/JJ	.
=286	=286	=286	=286	=286	=286
8EE-/L	16G/LL	16B-/LL	16e-/LL	16e-/LL	.
.	16G/JJ	16B-/	16e-/	16e-/	.
8E-/	16B-/LL	16e-/	16g/	16g/	.
.	16B-/JJ	16e-/	16g/	16g/	.
8EE-/J	16e-/LL	16g/	16b-/	16b-/	.
.	16e-/JJ	16g/JJ	16b-/JJ	16b-/JJ	.
=287	=287	=287	=287	=287	=287
8EE-/L	16G/LL	16B-/LL	16e-/LL	16e-/LL	.
.	16G/JJ	16B-/	16e-/	16e-/	.
8E-/	16B-/LL	16e-/	16g/	16g/	.
.	16B-/JJ	16e-/	16g/	16g/	.
8EE-/J	16e-/LL	16g/	16b-/	16b-/	.
.	16e-/JJ	16g/JJ	16b-/JJ	16b-/JJ	.
=288	=288	=288	=288	=288	=288
4EE-/	4G/	4B-/	4e-/	4e-/	.
8r	8r	8r	8r	8r	.
=289	=289	=289	=289	=289	=289
8E-\L	8g\L	8ee-/L	8ee-/L	8ee-/L	.
*	*	*	*strophe	*	*
*	*	*	*^	*	*
*	*	*	*^	*	*	*
*	*	*	*^	*	*	*	*
*	*	*	*S/S	*S/A	*S/D	*S/M	*	*
8B-\	8B-\	8B-/	8B-/	8B-/	8B-/	8e-/	8B-/	5 4
*	*	*	*S/fin	*S/fin	*S/fin	*S/fin	*	*
*	*	*	*v	*v	*v	*v	*	*
*	*	*	*S-	*	*
8BB-\J	8f\J	8dd/J	8dd/J	8dd/J	3
=290	=290	=290	=290	=290	=290
4EE-/	4G/	4e-/	4e-/	16.e-/LL	.
.	.	.	.	32g/k	.
.	.	.	.	(64f/LL	.
.	.	.	.	64e-/	.
.	.	.	.	64f/	.
.	.	.	.	64g/JJJJ	.
.	.	.	.	64a-/LLLL	.
.	.	.	.	64b-/	.
.	.	.	.	64cc/	.
.	.	.	.	64dd/JJJ	.
8r	8r	8r	8r	8ee-/J)	.
=291	=291	=291	=291	=291	=291
8E-\L	8g\L	8ee-/L	8ee-/L	8ee-/L	.
8B-\	8B-\	8B-/	8B-/	8B-/	5 4
8BB-\J	8f\J	8dd/J	8dd/J	8dd/J	3
*>S292	*>S292	*>S292	*>S292	*>S292	*>S292
!! Selfridge-Field edition.
=292	=292	=292	=292	=292	=292
4.EE-;/	4.G;/	4.e-;/	4.e-;/	4.e-;/	.
*>A292	*>A292	*>A292	*>A292	*>A292	*>A292
!! Amsterdam print.
=292	=292	=292	=292	=292	=292
4EE-;/	4G;/	4e-;/	4e-;/	4e-;/	.
8r	8r	8r	8r	8r	.
*>etc12	*>etc12	*>etc12	*>etc12	*>etc12	*>etc12
==|!	==|!	==|!	==|!	==|!	==|!
*-	*-	*-	*-	*-	*-
!!!CDT: 1678/3/4/-1741/7/28
!!!OCY: Italia
!!!ODE: Count Wenzeslaus von Morzin of Bohemia; Count Wenceslas of Morzin
!!!ODT: 1725///
!!!OPC: Venezia; Venice
!!!AGN: concerto
!!!AST: baroque
!!!AMT: simple triple
!!!PPR: Michel-Charles Le Ce`ne
!!!PC#: Le Cene No. 520
!!!PDT: 1725///
!!!PPP: Amsterdam
!!!SCT: RV 253
!!!SMA1: The cooperation of the following libraries is gratefully acknowledged:
!!!SMA2: Saechsische Landesbibliothek, Dresden; Biblioteca Nazionale
!!!SMA3: Universitaria, Turin; Henry Watson Music Library, Manchester.
!!!YOR: New York: Dover Publications, Inc. 1995
!!!AIN: cello cemba viola violn
!!!EEV: 1.0
!!!RDT: 1994/4/18/
!!!YER: 1996/10/31/
!!!YEP: Center for Computer Assisted Research in the Humanities
!!!YEN: United States of America
!!!EFL: 3/3
!!!ENC: Edmund Correia, Jr.
!!!EED: Eleanor Selfridge-Field
